!!!!SEGMENT: pl-kk--kk-i-309_anonim--magnificat.krn
!!!cenid: 17xx:2109
!!!COM: Anonim
!!!COM-rismID:
!!!CDT:
!!!CNT:
!!!OTL: Magnificat
!!!PDT:
!!!AGN: Sacred
!!!SMS-siglum: PL-Kk
!!!SMS-shelfmark: Kk.I.309
!!!SMS-shelfwork: W
!!!SMS-variant:
!!!SMS-altvar:
!!!NIFC-rismSourceID: 1001147298
!!!NIFC-islandoraID: pl-kk:5213
!!!URL-pdf-islandora: https://repozytorium.nifc.pl/islandora/object/pl-kk%3A5213/datastream/PDF/view
!!!URL-scan: https://polish.musicsources.pl/pl/lokalizacje/galeria/rekopisy/5928 @EN{Scan on Polish Music Herritage in Open Access Website} @PL{Skany w portalu Dziedzictwo Muzyki Polskiej w otwartym dostępie}
!!!ONB-nifc:
!!!AIN: 1 alto 1 empty 1 organ 1 tenor 1 vox
!!!key:
**kern	**fba	**kern	**text	**kern	**text	**kern	**text	**kern	**text
*part5	*part5	*part4	*part4	*part3	*part3	*part2	*part2	*part1	*part1
*staff5	*staff5	*staff4	*staff4	*staff3	*staff3	*staff2	*staff2	*staff1	*staff1
*Iorgan	*	*Iempty	*	*Itenor	*	*Ialto	*	*Ivox	*
*I"Organo	*	*I"Baſso	*	*I"Tenore	*	*I"Alto	*	*I"Canto	*
*I'org	*	*I'B	*	*I'T	*	*I'A	*	*I'S	*
*clefF4	*	*clefF4	*	*clefC4	*	*clefC3	*	*clefC1	*
*k[]	*	*k[]	*	*k[]	*	*k[]	*	*k[]	*
*C:	*	*C:	*	*C:	*	*C:	*	*C:	*
*M4/4	*	*M4/4	*	*M4/4	*	*M4/4	*	*M4/4	*
*met(c)	*	*met(c)	*	*met(c)	*	*met(c)	*	*met(c)	*
=1	=1	=1	=1	=1	=1	=1	=1	=1	=1
!!LO:TX:t=P:problem:kropki przedłużające wartość często pisane nad lub pod nutą
4r	.	4r	.	4r	.	4r	.	4r	.
4c\	.	4c\	Mag-	4e\	Mag-	4g\	Mag-	4cc\	Mag-
4.c\	.	4.c\	-ni-	4.e\	-ni-	4.g\	-ni-	4.cc\	-ni-
8c\	.	8c\	-fi-	8e\	-fi-	8g\	-fi-	8cc\	-fi-
=2	=2	=2	=2	=2	=2	=2	=2	=2	=2
4c\	.	4c\	-cat	4e\	-cat	4g\	-cat	4cc\	-cat
4G\	.	4G\	mag-	4d\	mag-	4g\	mag-	4b\	mag-
4.C/	.	4.C/	-ni-	4.e\	-ni-	4.g\	-ni-	4.cc\	-ni-
8C/	.	8C/	-fi-	8e\	-fi-	8g\	-fi-	8cc\	-fi-
=3	=3	=3	=3	=3	=3	=3	=3	=3	=3
4G\	.	4G\	-cat	4d\	-cat	4g\	-cat	4b\	-cat
*2\right	*	*2\right	*	*2\right	*	*2\right	*	*2\right	*
2G\	.	2G\	a-	2B\	a-	2g\	a-	2dd\	a-
8A\L	.	8A\	-ni-	8c\	-ni-	8g\	-ni-	8cc\	-ni-
8B\J	.	8B\	-ma	8d\	-ma[[m]]	8f\	-ma	8b\	-ma
!	!	!	!	!	!	!	!	!LO:LB:g=original	!
=4	=4	=4	=4	=4	=4	=4	=4	=4	=4
4c\	.	4c\	me-	4e\	me-	8e\	me-	4a\	me-
.	.	.	.	.	.	8f\	-a	.	.
4G\	.	4G\	-a	4e\	-a	[4g\	.	4b\	-a
!LO:LB:g=original	!	!LO:LB:g=original	!	!LO:LB:g=original	!	!LO:LB:g=original	!	!	!
=-	=-	=-	=-	=-	=-	=-	=-	=-	=-
4d\	.	4.D\	Do-	4.d\	Do-	4g\]	Do-	4.a\	Do-
4D\	.	.	.	.	.	4f#X\	-mi-	.	.
.	.	8D\	-mi-	8d\	-mi-	.	.	8a\	-mi-
=5	=5	=5	=5	=5	=5	=5	=5	=5	=5
4G\	.	4G\	-num	4d\	-num	4g\	-num	4b\	-num
4G\	.	4G\	Mag-	4d\	Mag-	4g\	Mag-	4b\	Mag-
4.G\	.	4.G\	-ni-	4.d\	-ni-	4.g\	-ni-	4.b\	-ni-
8G\	.	8G\	-fi-	8d\	-fi-	8g\	-fi-	8b\	-fi-
=6	=6	=6	=6	=6	=6	=6	=6	=6	=6
4G\	.	4G\	-cat	4d\	-cat	4g\	-cat	4b\	-cat
4D\	.	4D\	mag-	4d\	mag-	4f#X\	Mag-	4a\	mag-
4.GG/	.	4.GG/	-ni-	4.d\	-ni-	4.g\	-ni-	4.b\	-ni-
8GG/	.	8GG/	-fi-	8d\	-fi-	8g\	-fi-	8a\	-fi-
=7	=7	=7	=7	=7	=7	=7	=7	=7	=7
4D\	.	4D\	-cat	4d\	-cat	4f#X\	-cat	4a\	-cat
2D\	.	2D\	a-	2d\	a-	2a\	a-	2f#X/	a-
8E\L	.	8E\	-ni-	8c\	-ni-	8g\	-ni-	8g/	-ni-
8F#X\J	.	8F#X\	-ma	8c\	-ma	8f#X\	-ma	8a/	-ma
!	!	!LO:LB:g=original	!	!	!	!	!	!LO:LB:g=original	!
=8	=8	=8	=8	=8	=8	=8	=8	=8	=8
4G\	.	4G\	me-	8B\	me-	4e\	me-	4b\	me-
.	.	.	.	8c#X\	-a	.	.	.	.
4D\	#	4D\	-a	[4d\	Do-	4f#X\	-a	4a\	-a
!	!	!	!	!LO:LB:g=original	!	!LO:LB:g=original	!	!	!
=-	=-	=-	=-	=-	=-	=-	=-	=-	=-
4A\	.	4.A\	Do-	4d\]	.	4.e\	Do-	4.a\	Do-
4AA/	.	.	.	4c#X\	-mi-	.	.	.	.
.	.	8A\	-mi-	.	.	8e\	-mi-	8a\	-mi-
!LO:LB:g=original	!	!	!	!	!	!	!	!	!
=9	=9	=9	=9	=9	=9	=9	=9	=9	=9
4D\	.	4D\	-num	2d\	-num	4f#X\	-nu(m)	4a\	-num
2D\	.	[4D\	a-	.	.	4r	.	2dd\	a-
.	.	4D\]	.	2r	.	2r	.	.	.
8E\L	.	8E\	-ni-	.	.	.	.	8cc\	-ni-
8F#X\J	.	8F#X\	-ma	.	.	.	.	8cc\	-ma
=10	=10	=10	=10	=10	=10	=10	=10	=10	=10
4G\	.	4G\	me-	4r	.	4r	.	4b\	me-
2G\	.	4GG/	-a	2G/	-a-	2g\	-a-	4g\	-a
.	.	2r	.	.	.	.	.	2r	.
8A\L	-6	.	.	8A/	-ni-	8fnX\	-ni-	.	.
8B\J	65	.	.	8B/	-ma	8f\	-ma	.	.
=11	=11	=11	=11	=11	=11	=11	=11	=11	=11
4c\	.	4r	.	4c\	me-	4e\	me-	4r	.
2C/	.	2C/	a-	4C/	-a	4c\	-a	2cc\	a-
.	.	.	.	2r	.	4e\	a-	.	.
8D\L	-6	8D/	-ni-	.	.	8f\	-ni-	8b-X\	-ni-
8E\J	65	8E/	-ma	.	.	8g\	-ma	8b-\	-ma
!	!	!LO:LB:g=original	!	!	!	!	!	!LO:LB:g=original	!
=12	=12	=12	=12	=12	=12	=12	=12	=12-	=12
4F\	.	4F\	me-	4r	.	4f\	me-	4a\	me-
4C/	.	4C\	-a	4c\	et	4e\	-a	4g\	-a
!	!	!	!	!	!	!LO:LB:g=original	!	!	!
=-	=-	=-	=-	=-	=-	=-	=-	=-	=-
4G\	.	4.G\	Do-	4c\	e-	4.d\	Do-	4.g\	do-
4GG/	.	.	.	4B\	-xul-	.	.	.	.
.	.	8G\	-mi-	.	.	8d\	-mi-	8g\	-mi-
=13	=13	=13	=13	=13	=13	=13	=13	=13	=13
4C/	.	4C/	-num	4c\	-ta-	4e\	-nu(m)	4g\	-num
4C/	.	4C/	et	4e\	-vit	4g\	et	4cc\	et
4E\	.	4E\	e-	4e\	e-	4g\	e-	4cc\	e-
4G\	.	4G\	-xul-	4d\	-xul-	4g\	-xul-	4b\	-xul-
!LO:LB:g=original	!	!	!	!LO:LB:g=original	!	!	!	!	!
=14	=14	=14	=14	=14	=14	=14	=14	=14	=14
8c\L	.	8c\L	-ta-	(8e\L	-ta-	1g	-ta-	[1cc	-ta-
8e\	.	8e\	.	8g\J)	.	.	.	.	.
8c\	.	8c\	.	(8e\L	.	.	.	.	.
8e\J	.	8e\J	.	8g\J)	.	.	.	.	.
8c\L	.	8c\L	.	(8e\L	.	.	.	.	.
8e\	.	8e\	.	8g\J)	.	.	.	.	.
8c\	.	8c\	.	8e\L	.	.	.	.	.
8B\J	6	8B\J	.	8d\J	.	.	.	.	.
=15	=15	=15	=15	=15	=15	=15	=15	=15	=15
!LO:SIC:v:s=8c	!	!	!	!	!	!	!	!	!
8A\L	.	4A\	.	4c\	.	4a\	-vit	8cc\L]	.
!LO:SIC:v:s=8e	!	!	!	!	!	!	!	!	!
8c\	.	.	.	.	.	.	.	8ee\J	.
!LO:SIC:v:s=8c	!	!	!	!	!	!	!	!	!
8A\	.	4AA/	-vit	4A\	-vit	4e\	et	8cc\L	.
!LO:SIC:v:s=8e	!	!	!	!	!	!	!	!	!
8c\J	.	.	.	.	.	.	.	8ee\J	.
!LO:SIC:v:s=8c	!	!	!	!	!	!	!	!	!
8A\L	.	4C/	e-	4A\	e-	4e\	e-	8cc\L	.
!LO:SIC:v:s=8e	!	!	!	!	!	!	!	!	!
8c\	.	.	.	.	.	.	.	8ee\J	.
!LO:SIC:v:s=8c	!	!	!	!	!	!	!	!	!
8A\	.	4E\	-xul-	4G#X\	-xul-	4e\	-xul-	8cc\L	.
!LO:SIC:v:s=8B	!	!	!	!	!	!	!	!	!
8G\J	.	.	.	.	.	.	.	8b\J	.
!	!	!	!	!	!	!	!	!LO:LB:g=original	!
=16	=16	=16	=16	=16	=16	=16	=16	=16	=16
!LO:SIC:v:s=8A	!	!	!	!	!	!	!	!	!
8F\L	.	8A\L	-ta-	8c\L	-ta-	1e	-ta-	[1a	.
!LO:SIC:v:s=8c	!	!	!	!	!	!	!	!	!
8A\	.	8c\	.	8e\J	.	.	.	.	.
!LO:SIC:v:s=8A	!	!	!	!	!	!	!	!	!
8F\	.	8A\	.	8c\L	.	.	.	.	.
!LO:SIC:v:s=8c	!	!	!	!	!	!	!	!	!
8A\J	.	8c\J	.	8e\J	.	.	.	.	.
!	!	!LO:LB:g=original	!	!	!	!	!	!	!
=-	=-	=-	=-	=-	=-	=-	=-	=-	=-
!LO:SIC:v:s=8A	!	!	!	!	!	!	!	!	!
8F\L	.	8A\L	.	8c\L	.	.	.	.	.
!LO:SIC:v:s=8c	!	!	!	!	!	!	!	!	!
8A\	.	8c\	.	8e\J	.	.	.	.	.
!LO:SIC:v:s=8A	!	!	!	!	!	!	!	!	!
8F\	.	8A\	.	8c\L	.	.	.	.	.
!LO:SIC:v:s=8G	!	!	!	!	!	!	!	!	!
8E\J	.	8G\J	.	8B\J	.	.	.	.	.
=17	=17	=17	=17	=17	=17	=17	=17	=17	=17
!LO:SIC:v:s=4F	!	!	!	!	!	!	!	!	!
4D\	5 3	8F\L	.	[1A	.	4c/	-vit	8a\L]	.
.	.	8A\	.	.	.	.	.	8cc\J	.
!LO:SIC:v:s=4F	!	!	!	!	!	!	!	!	!
4D\	.	8F\	.	.	.	4c/	et	8a\L	.
.	.	8A\J	.	.	.	.	.	8cc\J	.
!LO:SIC:v:s=4F	!	!	!	!	!	!	!	!	!
4D\	.	8F\L	.	.	.	4c/	e-	8a\L	.
.	.	8A\	.	.	.	.	.	8cc\J	.
!LO:SIC:v:s=4F	!	!	!	!	!	!	!	!	!
4D\	.	8F\	.	.	.	4c/	-xul-	8a\L	.
.	.	8E\J	.	.	.	.	.	8g\J	.
!	!	!	!	!LO:LB:g=original	!	!LO:LB:g=original	!	!	!
=18	=18	=18	=18	=18	=18	=18	=18	=18	=18
4D\	.	4F\	.	4A\]	.	4d\	-ta-	4f/	.
!	!	!LO:SIC:v:l:s=-vit	!	!	!	!	!	!	!
4D\	.	4F\	-vi	4A\	-vit	4d\	-vit	4f/	-vit
!LO:LB:g=original	!	!	!	!	!	!	!	!	!
=-	=-	=-	=-	=-	=-	=-	=-	=-	=-
4r;	.	4r;	.	2r;	.	2r;	.	4r;	.
!LO:TX:a:t=Adagio	!	!LO:TX:b:t=Ad[agi]o	!	!	!	!	!	!LO:TX:t=Ad[agi]o	!
[4d\	.	[4d\	spi-	.	.	.	.	4dd\	Spi-
=19	=19	=19	=19	=19	=19	=19	=19	=19	=19
*	*below	*	*	*	*	*	*	*	*
!	!	!	!	!LO:TX:t=Ad[agi]o	!	!LO:TX:t=Ad[agi]o	!	!	!
4d\]	6 #4	4d\]	.	4e\	Spi-	4g#X\	spi-	4b\	-ri-
4c\	.	8c\	-ri-	8e\	-ri-	8a\	-ri-	4cc\	-tus
*	*above	*	*	*	*	*	*	*	*
.	7	8c\	-tus	8e\	-tuſ	8a\	-tus	.	.
2B\	#6	2B\	me-	2d\	me-	4a\	me-	2dd\	me-
.	.	.	.	.	.	4g#X\	.	.	.
!	!	!	!	!	!	!	!	!LO:LB:g=original	!
=20	=20	=20	=20	=20	=20	=20	=20	=20	=20
4A\	.	4A\	-uſ	4e\	-uſ	4a\	-uſ	4cc\	-uſ
4A\	.	4A\	in	4c\	in	4e\	in	4a\	in
2F\	.	2F\	De-	2c\	De-	2f\	De-	2a\	De-
!	!	!LO:LB:g=original	!	!	!	!	!	!	!
=21	=21	=21	=21	=21	=21	=21	=21	=21	=21
4C/	.	4C/	-o	4c\	-o	4e\	-o	4g\	-o
4c\	.	4c\	in	4e\	in	4g\	in	4cc\	in
4.F\	.	4.F\	De-	4.c\	De-	4.f\	De-	4.a\	De-
8G\	.	8G\	-o	8B\	-o	8e\	-o	8g\	-o
!	!	!	!	!LO:LB:g=original	!	!LO:LB:g=original	!	!	!
=22	=22	=22	=22	=22	=22	=22	=22	=22	=22
4A\	.	4A\	sa-	4c\	Sa-	4.f\	Sa-	4cc\	Sa-
4B\	.	4B\	-lu-	4d\	-lu-	.	.	8b\L	-lu-
.	.	.	.	.	.	8f\	-lu-	8a\J	.
4c\	.	4c\	-ta-	8e\	-ta-	4e\	-ta-	4g\	-ta-
.	.	.	.	8d\	-ri	.	.	.	.
4F\	.	4F\	-ri	[4c\	me-	4f\	-ri	4a\	-ri
!LO:LB:g=original	!	!	!	!	!	!	!	!	!
=23	=23	=23	=23	=23	=23	=23	=23	=23	=23
2G\	.	2G\	me-	4c\]	.	2d\	me-	2g\	me-
.	.	.	.	4B\	.	.	.	.	.
4C/	.	4C/	-o	4c\	-o	4e\	-o	4g\	-o
4r	.	4r	.	4G/	in	4r	.	4r	.
=24	=24	=24	=24	=24	=24	=24	=24	=24	=24
4r	.	4r	.	2.c\	De-	2r	.	4r	.
4C/	.	4C/	in	.	.	.	.	4c/	in
!	!	!	!	!	!	!	!	!LO:LB:g=original	!
=-	=-	=-	=-	=-	=-	=-	=-	=-	=-
[2F\	5	[2F\	De-	.	.	4r	.	[2a\	De-
.	.	.	.	4A\	-o	4c\	in	.	.
=25	=25	=25	=25	=25	=25	=25	=25	=25	=25
4F\]	6	4F\]	.	2.d\	Sa-	2f\	De-	4a\]	.
4D\	.	4D\	-o	.	.	.	.	4f/	-o
[2G\	.	[2G\	sa-	.	.	2d\	-o	[2b\	Sa-
.	.	.	.	4B\	-lu-	.	.	.	.
!	!	!LO:LB:g=original	!	!	!	!	!	!	!
=26	=26	=26	=26	=26	=26	=26	=26	=26	=26
4G\]	6	4G\]	.	2.e\	-ta-	2g\	Sa-	4b\]	.
4E\	.	4E\	-lu-	.	.	.	.	4g\	-lu-
[2A\	.	[2A\	-ta-	.	.	2e\	-lu-	[2cc\	-ta-
.	.	.	.	4c\	-ri	.	.	.	.
=27	=27	=27	=27	=27	=27	=27	=27	=27	=27
4A\]	.	4A\]	.	2.f\	me-	2a\	-ta-	4cc\]	.
4F\	.	4F\	-ri	.	.	.	.	4a\	-ri
!	!	!	!	!	!	!LO:LB:g=original	!	!	!
=-	=-	=-	=-	=-	=-	=-	=-	=-	=-
4B\	6	(4B\	me-	.	.	2g\	-ri	4b\	me-
4c\	.	4c\)	.	4e\	.	.	.	4g\	.
!LO:LB:g=original	!	!	!	!LO:LB:g=original	!	!	!	!	!
=28	=28	=28	=28	=28	=28	=28	=28	=28	=28
1G	.	1G	.	8d\L	.	4g\	me-	[1g	-o
.	.	.	.	8c\J	.	.	.	.	.
.	.	.	.	2c\	.	8e\L	.	.	.
.	.	.	.	.	.	16d\L	.	.	.
.	.	.	.	.	.	16c\JJ	.	.	.
.	.	.	.	.	.	2d\	.	.	.
.	.	.	.	4B\	.	.	.	.	.
=29	=29	=29	=29	=29	=29	=29	=29	=29	=29
!LO:TX:b:i:t=Siegue Alto Solo	!	!	!	!	!	!LO:TX:b:i:t=Siegue Solo	!	!	!
1C;	.	1C;	-o	1c	-o	1e;	-o	1g;]	.
!LO:PB:g=original	!	!LO:PB:g=original	!	!LO:PB:g=original	!	!LO:PB:g=original	!	!LO:PB:g=original	!
=30||	=30||	=30||	=30||	=30||	=30||	=30||	=30||	=30	=30||
*M3/4	*	*M3/4	*	*M3/4	*	*M3/4	*	*M3/4	*
!LO:TX:b:t=Quia Respexit.	!	!LO:TX:t=Q(u)ia Respexit Tacet	!	!LO:TX:t=Quia Respexit Tacet	!	!LO:TX:a:i:t=Solo	!	!LO:TX:t=Q[u]ia Respexit Tacet	!
2C/	.	2.ryy	.	2.ryy	.	4g\	Qui-	2.ryy	.
.	.	.	.	.	.	4cc\	-a	.	.
4C/	.	.	.	.	.	4g\	res-	.	.
=31	=31	=31	=31	=31	=31	=31	=31	=31	=31
4F\	.	2.ryy	.	2.ryy	.	4a\	-pe-	2.ryy	.
4C/	.	.	.	.	.	4g\	-xit	.	.
4E\	.	.	.	.	.	4cc\	hu-	.	.
=32	=32	=32	=32	=32	=32	=32	=32	=32	=32
4D/	.	2.ryy	.	2.ryy	.	2f\	-mi-	2.ryy	.
4BB/	.	.	.	.	.	.	.	.	.
4C/	.	.	.	.	.	4e\	-li-	.	.
=33	=33	=33	=33	=33	=33	=33	=33	=33	=33
4GG/	.	2.ryy	.	2.ryy	.	4e\	-ta-	2.ryy	.
4G\	.	.	.	.	.	4d\	-tem	.	.
4GG/	.	.	.	.	.	4g\	an-	.	.
=34	=34	=34	=34	=34	=34	=34	=34	=34	=34
2AA/	.	2.ryy	.	2.ryy	.	4cc\	-cil-	2.ryy	.
!	!	!	!	!	!	!LO:SIC:v:l:s=lae-	!	!	!
!	!	!	!	!	!	!LO:TX:t=P:problem=rozmazany krzyżyk?	!	!	!
.	.	.	.	.	.	4f\	-lę	.	.
4BB/	.	.	.	.	.	[4g\	.	.	.
!LO:LB:g=original	!	!	!	!	!	!	!	!	!
=35	=35	=35	=35	=35	=35	=35	=35	=35	=35
4C/	.	2.ryy	.	2.ryy	.	4g\]	.	2.ryy	.
4D/	.	.	.	.	.	2f#X\	ſu-	.	.
4DD/	.	.	.	.	.	.	.	.	.
!	!	!	!	!	!	!LO:LB:g=original	!	!	!
=36	=36	=36	=36	=36	=36	=36	=36	=36	=36
4GG/	.	2.ryy	.	2.ryy	.	4g\	-ae	2.ryy	.
4BB/	.	.	.	.	.	4g\	ec-	.	.
4GG/	.	.	.	.	.	4g\	-ce	.	.
=37	=37	=37	=37	=37	=37	=37	=37	=37	=37
4C/	.	2.ryy	.	2.ryy	.	(8a\L	e-	2.ryy	.
.	.	.	.	.	.	8cc\J)	.	.	.
4D/	.	.	.	.	.	8b\L	-nim	.	.
.	.	.	.	.	.	8a\J	.	.	.
4DD/	.	.	.	.	.	8g\L	ex	.	.
.	.	.	.	.	.	8f#X\J	.	.	.
=38	=38	=38	=38	=38	=38	=38	=38	=38	=38
4GG/	.	2.ryy	.	2.ryy	.	2g\	hoc	2.ryy	.
4G\	.	.	.	.	.	.	.	.	.
4F#X\	.	.	.	.	.	4a\	be-	.	.
=39	=39	=39	=39	=39	=39	=39	=39	=39	=39
4G\	.	2.ryy	.	2.ryy	.	4b\	-a-	2.ryy	.
4A\	.	.	.	.	.	4cc\	-tam	.	.
4G\	.	.	.	.	.	4b\	me	.	.
=40	=40	=40	=40	=40	=40	=40	=40	=40	=40
4D\	.	2.ryy	.	2.ryy	.	4b\	di-	2.ryy	.
4d\	.	.	.	.	.	4a\	-cent	.	.
4c\	.	.	.	.	.	4r	.	.	.
!LO:LB:g=original	!	!	!	!	!	!	!	!	!
=41	=41	=41	=41	=41	=41	=41	=41	=41	=41
2B\	.	2.ryy	.	2.ryy	.	4r	.	2.ryy	.
.	.	.	.	.	.	4d\	om-	.	.
4G\	.	.	.	.	.	4d\	-neſ	.	.
!	!	!	!	!	!	!LO:LB:g=original	!	!	!
=42	=42	=42	=42	=42	=42	=42	=42	=42	=42
4C/	5	2.ryy	.	2.ryy	.	8.e\L	ge-	2.ryy	.
.	.	.	.	.	.	16d\Jk	.	.	.
4C/	.	.	.	.	.	8e\L	.	.	.
.	.	.	.	.	.	8f#X\J	.	.	.
4C/	6	.	.	.	.	8g\L	-ne-	.	.
.	.	.	.	.	.	8a\J	.	.	.
=43	=43	=43	=43	=43	=43	=43	=43	=43	=43
4D\	5	2.ryy	.	2.ryy	.	8.f#X\L	-ra-	2.ryy	.
.	.	.	.	.	.	16e\Jk	.	.	.
4D\	.	.	.	.	.	8f#\L	.	.	.
.	.	.	.	.	.	8g\J	.	.	.
4D\	6	.	.	.	.	8a\L	.	.	.
.	.	.	.	.	.	8b\J	.	.	.
=44	=44	=44	=44	=44	=44	=44	=44	=44	=44
4E\	5	2.ryy	.	2.ryy	.	8.g\L	.	2.ryy	.
!	!	!	!	!	!	!LO:SIC:v:s=16f#	!	!	!
.	.	.	.	.	.	16f\K	.	.	.
4E\	.	.	.	.	.	8g\	.	.	.
.	.	.	.	.	.	8a\	.	.	.
4E\	6	.	.	.	.	8b\	.	.	.
.	.	.	.	.	.	8cc\J	.	.	.
=45	=45	=45	=45	=45	=45	=45	=45	=45	=45
4F#X\	5	2.ryy	.	2.ryy	.	8.a\L	.	2.ryy	.
.	.	.	.	.	.	16g\K	.	.	.
4F#\	.	.	.	.	.	8a\	.	.	.
.	.	.	.	.	.	8b\	.	.	.
4F#\	6	.	.	.	.	8cc\	.	.	.
.	.	.	.	.	.	8dd\J	.	.	.
!	!	!	!	!	!	!LO:LB:g=original	!	!	!
=46	=46	=46	=46	=46	=46	=46	=46	=46	=46
4G\	.	2.ryy	.	2.ryy	.	4.b\	.	2.ryy	.
4D\	.	.	.	.	.	.	.	.	.
.	.	.	.	.	.	8a\	.	.	.
4E\	.	.	.	.	.	8g\L	.	.	.
.	.	.	.	.	.	16a\L	.	.	.
.	.	.	.	.	.	16b\JJ	.	.	.
!LO:LB:g=original	!	!	!	!	!	!	!	!	!
=47	=47	=47	=47	=47	=47	=47	=47	=47	=47
4C/	.	2.ryy	.	2.ryy	.	8cc\L	-ti-	2.ryy	.
.	.	.	.	.	.	16b\L	.	.	.
.	.	.	.	.	.	16a\JJ	.	.	.
4D/	.	.	.	.	.	4g\	-o-	.	.
4DD/	.	.	.	.	.	4a\	.	.	.
=48	=48	=48	=48	=48	=48	=48	=48	=48	=48
!LO:TX:t=P:problem=mixed beam	!	!	!	!	!	!	!	!	!
8GG/L	.	2.ryy	.	2.ryy	.	4g\	-neſ	2.ryy	.
8A\	.	.	.	.	.	.	.	.	.
8G\	.	.	.	.	.	4r	.	.	.
8Fn\	.	.	.	.	.	.	.	.	.
8E\	.	.	.	.	.	4r	.	.	.
8D\J	.	.	.	.	.	.	.	.	.
=49	=49	=49	=49	=49	=49	=49	=49	=49	=49
4C/	.	2.ryy	.	2.ryy	.	4r	.	2.ryy	.
4E\	.	.	.	.	.	4c\	ec-	.	.
4C/	.	.	.	.	.	4c\	-ce	.	.
=50	=50	=50	=50	=50	=50	=50	=50	=50	=50
4F\	.	2.ryy	.	2.ryy	.	8d\L	e-	2.ryy	.
.	.	.	.	.	.	8f\J	.	.	.
4G\	.	.	.	.	.	8e\L	-nim	.	.
.	.	.	.	.	.	8d\J	.	.	.
4GG/	.	.	.	.	.	8c\L	ex	.	.
.	.	.	.	.	.	8B\J	.	.	.
!	!	!	!	!	!	!LO:LB:g=original	!	!	!
=51	=51	=51	=51	=51	=51	=51	=51	=51	=51
4C/	.	2.ryy	.	2.ryy	.	2c\	hoc	2.ryy	.
4C/	.	.	.	.	.	.	.	.	.
4BB/	.	.	.	.	.	4d\	be-	.	.
=52	=52	=52	=52	=52	=52	=52	=52	=52	=52
4C/	.	2.ryy	.	2.ryy	.	4e\	-a-	2.ryy	.
4D/	.	.	.	.	.	4f\	-tam	.	.
4C/	.	.	.	.	.	4e\	me	.	.
!LO:LB:g=original	!	!	!	!	!	!	!	!	!
=53	=53	=53	=53	=53	=53	=53	=53	=53	=53
4GG/	.	2.ryy	.	2.ryy	.	4e\	di-	2.ryy	.
4G\	.	.	.	.	.	4d\	-cent	.	.
4F\	.	.	.	.	.	4r	.	.	.
=54	=54	=54	=54	=54	=54	=54	=54	=54	=54
2E\	.	2.ryy	.	2.ryy	.	4r	.	2.ryy	.
.	.	.	.	.	.	4g\	om-	.	.
4C/	.	.	.	.	.	4g\	-nes	.	.
=55	=55	=55	=55	=55	=55	=55	=55	=55	=55
4F\	.	2.ryy	.	2.ryy	.	8.a\L	ge-	2.ryy	.
.	.	.	.	.	.	16g\Jk	.	.	.
4FF/	.	.	.	.	.	8a\L	-ne-	.	.
.	.	.	.	.	.	8g\	.	.	.
4r	.	.	.	.	.	8f\	-ra-	.	.
.	.	.	.	.	.	8e\J	.	.	.
=56	=56	=56	=56	=56	=56	=56	=56	=56	=56
4G\	.	2.ryy	.	2.ryy	.	8.b\L	.	2.ryy	.
.	.	.	.	.	.	16a\Jk	.	.	.
4GG/	.	.	.	.	.	8b\L	.	.	.
.	.	.	.	.	.	8g\J	.	.	.
4r	.	.	.	.	.	8f\L	.	.	.
.	.	.	.	.	.	8e\J	.	.	.
!	!	!	!	!	!	!LO:LB:g=original	!	!	!
=57	=57	=57	=57	=57	=57	=57	=57	=57	=57
4A\	.	2.ryy	.	2.ryy	.	4cc\	.	2.ryy	.
2B\	.	.	.	.	.	8b\L	.	.	.
.	.	.	.	.	.	8a\J	.	.	.
.	.	.	.	.	.	8g\L	-ti-	.	.
.	.	.	.	.	.	8f\J	.	.	.
=58	=58	=58	=58	=58	=58	=58	=58	=58	=58
4c\	.	2.ryy	.	2.ryy	.	8e\L	-o-	2.ryy	.
.	.	.	.	.	.	16d\L	.	.	.
.	.	.	.	.	.	16c\JJ	.	.	.
4G\	.	.	.	.	.	2d\	.	.	.
4GG/	.	.	.	.	.	.	.	.	.
=59	=59	=59	=59	=59	=59	=59	=59	=59	=59
4C/	.	2.ryy	.	2.ryy	.	4c\	-nes	2.ryy	.
4E/	.	.	.	.	.	4cc\	ge-	.	.
4C/	.	.	.	.	.	4b-X\	-ne-	.	.
!LO:LB:g=original	!	!	!	!	!	!	!	!	!
=60	=60	=60	=60	=60	=60	=60	=60	=60	=60
2F\	.	2.ryy	.	2.ryy	.	8.a\L	-ra-	2.ryy	.
.	.	.	.	.	.	16g\K	.	.	.
.	.	.	.	.	.	8a\	.	.	.
.	.	.	.	.	.	8bn\J	.	.	.
4E\	.	.	.	.	.	4cc\	.	.	.
=61	=61	=61	=61	=61	=61	=61	=61	=61	=61
4F\	.	2.ryy	.	2.ryy	.	8.c\L	-ti-	2.ryy	.
.	.	.	.	.	.	16d\Jk	.	.	.
4G\	.	.	.	.	.	2d\	-o-	.	.
4GG;/	.	.	.	.	.	.	.	.	.
=62	=62	=62	=62	=62	=62	=62	=62	=62	=62
4C/	.	2.ryy	.	2.ryy	.	2c\	-nes	2.ryy	.
4c\	.	.	.	.	.	.	.	.	.
4B\	.	.	.	.	.	4r	.	.	.
=63	=63	=63	=63	=63	=63	=63	=63	=63	=63
4A\	.	2.ryy	.	2.ryy	.	2.ryy	.	2.ryy	.
4G\	.	.	.	.	.	.	.	.	.
4F\	.	.	.	.	.	.	.	.	.
=64	=64	=64	=64	=64	=64	=64	=64	=64	=64
8.E\L	.	2.ryy	.	2.ryy	.	2.ryy	.	2.ryy	.
16F\Jk	.	.	.	.	.	.	.	.	.
4G\	.	.	.	.	.	.	.	.	.
4GG/	.	.	.	.	.	.	.	.	.
=65	=65	=65	=65	=65	=65	=65	=65	=65	=65
2C;/	.	2.ryy	.	2.ryy	.	2.ryy	.	2.ryy	.
4r	.	.	.	.	.	.	.	.	.
!LO:PB:g=original	!	!	!	!	!	!LO:LB:g=original	!	!	!
=66||	=66||	=66||	=66||	=66||	=66||	=66||	=66||	=66||	=66||
*M3/4	*	*M3/4	*	*M3/4	*	*M3/4	*	*M3/4	*
!LO:TX:b:t=Q[u]ia fecit	!	!	!	!	!	!LO:TX:b:t=1	!	!	!
!LO:TX:a:t=Tutti	!	!	!	!LO:TX:b:t=1	!	!LO:TX:a:i:t=Tutti	!	!LO:TX:a:t=Tutti	!
4r	.	4r	.	2.r	.	2.r	.	4r	.
4G\	.	4G\	Qui-	.	.	.	.	4b\	Qui-
4D\	#	4D\	-a	.	.	.	.	4a\	-a
=67	=67	=67	=67	=67	=67	=67	=67	=67	=67
2G\	.	2G\	fe-	4r	.	4r	.	2b\	fe-
.	.	.	.	4B\	Qui-	4g\	Qui-	.	.
4D\	#	4D\	-cit	4A\	-a	4f#X\	-a	4dd\	-cit
=68	=68	=68	=68	=68	=68	=68	=68	=68	=68
8.G\L	.	8.G\L	mi-	2B\	fe-	2g\	fe-	8.b\L	mi-
16A\Jk	.	16A\Jk	.	.	.	.	.	16cc\Jk	.
4B\	.	4B\	.	.	.	.	.	4dd\	.
4c#X\	.	4c#X\	-hi	4g\	-cit	4g\	-cit	4ee\	-[[c]]hi
=69	=69	=69	=69	=69	=69	=69	=69	=69	=69
[2.d\	5 #3	[2.d\	ma-	8.d\L	mi-	8.f#X\L	mi-	2dd\	mag-
.	6 4	.	.	16e\Jk	.	16g\Jk	.	.	.
.	.	.	.	(4f#X\	.	4a\	.	.	.
.	.	.	.	4g\)	-hi	4b\	-hi	4dd\	-na
=70	=70	=70	=70	=70	=70	=70	=70	=70	=70
2.d\]	5 3	2.d\]	.	2d\	mag-	8.f#X\L	ma-	(8.dd\L	mi-
.	6 4	.	.	.	.	16g\Jk	.	16ee\Jk	.
.	.	.	.	.	.	4a\	.	4ff#X\)	.
.	.	.	.	4d\	-na	4b\	.	4gg\	-hi
!LO:LB:g=original	!	!	!	!	!	!LO:PB:g=original	!	!LO:LB:g=original	!
=71	=71	=71	=71	=71	=71	=71	=71	=71	=71
2d\	5 #3	2d\	-gna	2.d\	qui	2f#X\	-gna	4dd\	mag-
.	.	.	.	.	.	.	.	4dd\	-na
4B\	6	4B\	qui	.	.	4g\	qui	4dd\	qui
!	!	!	!	!LO:LB:g=original	!	!	!	!	!
=72	=72	=72	=72	=72	=72	=72	=72	=72	=72
4c\	6 5	4c\	po-	2e\	po-	2g\	po-	2cc\	po-
4A\	.	4A\	.	.	.	.	.	.	.
!	!	!	!	!LO:SIC:v:l:s=-tens	!	!	!	!	!
4d\	3	4d\	-tenſ	4d\	-ten	4f#X\	-tens	4a\	-tens
!	!	!LO:LB:g=original	!	!	!	!	!	!	!
=73	=73	=73	=73	=73	=73	=73	=73	=73	=73
2G\	.	2G\	est	2d\	est	2g\	est	2b\	est
4F#X\	.	4F#X\	qui	4d\	qui	4a\	qui	4a\	qui
=74	=74	=74	=74	=74	=74	=74	=74	=74	=74
4G\	6 5	4G\	po-	2d\	po-	2g\	po-	2b\	po-
4E\	.	4E\	.	.	.	.	.	.	.
4A\	#	4A\	-tenſ	4c#X\	-tenſ	4f\	-tens	4a\	-tens
=75	=75	=75	=75	=75	=75	=75	=75	=75	=75
2D\	#	2D\	est	4d\	eſt	2f#X\	est	2a\	est
.	.	.	.	2d\	et	.	.	.	.
4D\	.	4D\	et	.	.	4f#\	et	4a\	et
=76	=76	=76	=76	=76	=76	=76	=76	=76	=76
4G\	5	4G\	san-	4d\	san-	4d\	San-	4b\	san-
2F#X\	#6	2F#X\	-ctum	2d#X\	-ctum	2f#X\	-ctu(m)	2a\	-ctum
!LO:LB:g=original	!	!	!	!	!	!	!	!LO:LB:g=original	!
=77	=77	=77	=77	=77	=77	=77	=77	=77	=77
2E\	n5	2E\	no-	2e\	no-	2g\	no-	2g\	no-
[4B\	.	[4B\	-men	[4dn\	-men	[4f#X\	-men	[4b\	-men
=78	=78	=78	=78	=78	=78	=78	=78	=78	=78
4B\]	.	4B\]	.	4d\]	.	4f#\]	.	4b\]	.
!	!	!	!	!	!	!LO:SIC:v:l:s=e-	!	!LO:SIC:v:l:s=e-	!
2F#X\	.	2F#X\	e-	2c#X\	e-	2f#y\	ei-	2a#X\	ei-
!	!	!	!	!LO:LB:g=original	!	!LO:LB:g=original	!	!	!
=79	=79	=79	=79	=79	=79	=79	=79	=79	=79
!	!	!	!	!	!	!LO:SIC:v:l:s=-ius	!	!LO:SIC:v:l:s=-ius	!
!	!	!	!	!	!	!LO:SIC:v:s=2f#	!	!	!
2.BB/	.	2BB/	-iuſ.	4d\	-iuſ	2fny\	-uſ	4b\	-uſ
.	.	.	.	4f#X\	san-	.	.	4dd\	san-
.	.	4r	.	4e\	-ctu(m)	4r	.	4cc#X\	-ctum
!	!	!LO:LB:g=original	!	!	!	!	!	!	!
=80	=80	=80	=80	=80	=80	=80	=80	=80	=80
!	!	!	!	!	!	!LO:SIC:v:s=4f#	!	!	!
4B\	.	4B\	et	4d\	no-	4f\	et	4b\	no-
4c#X\	6	4c#X\	san-	2c#X\	-men	4e\	san-	2a\	-men
4A\	#	4A\	-ctu(m)	.	.	4a\	-ctu(m)	.	.
=81	=81	=81	=81	=81	=81	=81	=81	=81	=81
8D\L	#	8D\L	no-	2.d\	no-	8f#X\L	no-	2.a\	no-
8C\	.	8C\	.	.	.	8e\	.	.	.
8D\	.	8D\	.	.	.	8f#\	.	.	.
8E\	.	8E\	.	.	.	8g\	.	.	.
8F#X\	.	8F#X\	.	.	.	8a\	.	.	.
8D\J	.	8D\J	.	.	.	8f#\J	.	.	.
=82	=82	=82	=82	=82	=82	=82	=82	=82	=82
8G\L	.	8G\L	.	2.d\	-men	2.g\	.	2.b\	-men
!LO:SIC:v:s=8F#	!	!LO:SIC:v:s=8F#	!	!	!	!	!	!	!
8F\	.	8F\	.	.	.	.	.	.	.
8G\	.	8G\	.	.	.	.	.	.	.
8A\	.	8A\	.	.	.	.	.	.	.
8B\	.	8B\	.	.	.	.	.	.	.
8G\J	.	8G\J	.	.	.	.	.	.	.
!LO:LB:g=original	!	!	!	!	!	!	!	!LO:LB:g=original	!
=83	=83	=83	=83	=83	=83	=83	=83	=83	=83
2A\	#	2A\	.	2c#X\	no-	2e\	.	2a\	no-
[4d\	.	[4d\	-men	[4d\	-men	[4f#X\	-men	[4a\	-men
=84	=84	=84	=84	=84	=84	=84	=84	=84	=84
4d\]	.	4d\]	.	4d\]	.	4f#\]	.	4a\]	.
!	!	!LO:SIC:v:l:s=e-	!	!LO:SIC:v:l:s=e-	!	!	!	!LO:SIC:v:l:s=e-	!
2A\	#	2A\	ei-	2c#X\	ei-	2e\	e-	2a\	ei-
=85	=85	=85	=85	=85	=85	=85	=85	=85	=85
!	!	!LO:SIC:v:l:s=-ius	!	!LO:SIC:v:l:s=-ius	!	!	!	!LO:SIC:v:l:s=-ius	!
4D\	.	4D\	-uſ	4d\	-uſ	4f#X\	-ius	4a\	-uſ
4d\	.	4d\	qui-	4r	.	4f#\	qui-	4r	.
4A\	#	4A\	-a	4r	.	4e\	-a	4r	.
!	!	!LO:LB:g=original	!	!LO:LB:g=original	!	!LO:LB:g=original	!	!	!
=86	=86	=86	=86	=86	=86	=86	=86	=86	=86
2d\	.	2d\	fe-	4r	.	2f#X\	fe-	4r	.
.	.	.	.	4f#X\	qui-	.	.	4dd\	qui-
4A\	#	4A\	-cit	4e\	-a	4a\	-cit	4cc#X\	-a
=87	=87	=87	=87	=87	=87	=87	=87	=87	=87
8.D\L	.	8.D\L	mi-	2f#X\	fe-	8.f#X\L	mi-	2dd\	fe-
16E\Jk	.	16E\Jk	.	.	.	16g\Jk	.	.	.
4F#X\	.	4F#X\	.	.	.	4a\	.	.	.
4G#X\	.	4G#X\	-hi	4d\	-cit	4b\	-hi	4dd\	-cit
=88	=88	=88	=88	=88	=88	=88	=88	=88	=88
[2.A\	5 #3	[2.A\	ma-	8.c#X\L	mi-	2a\	mag-	8a\L	mi-
.	6 4	.	.	.	.	.	.	8b\J	.
.	.	.	.	16d\Jk	.	.	.	.	.
.	.	.	.	4e\	.	.	.	4cc#X\	.
.	.	.	.	4f#X\	-hi	4a\	-na	4dd\	-hi
!LO:LB:g=original	!	!	!	!	!	!	!	!LO:LB:g=original	!
=89	=89	=89	=89	=89	=89	=89	=89	=89	=89
2.A\]	5 3	2.A\]	.	2e\	mag-	8.c#\L	mi-	2.a\	mag-
.	6 4	.	.	.	.	16d\Jk	.	.	.
.	.	.	.	.	.	4e\	.	.	.
.	.	.	.	4A\	-na	4f#X\	-hi	.	.
=90	=90	=90	=90	=90	=90	=90	=90	=90	=90
2A\	#	2A\	-gna	(2c#X\	qui	4e\	mag-	2a\	-na
.	.	.	.	.	.	4e\	-na	.	.
4F#X\	.	4F#X\	qui	4d\)	.	4a\	qui	4a\	qui
=91	=91	=91	=91	=91	=91	=91	=91	=91	=91
4G\	.	(4G\	po-	2d\	po-	2g\	po-	2b\	po-
4E\	.	4E\)	.	.	.	.	.	.	.
4A\	.	4A\	-tenſ	4c#X\	-tenſ	4e\	-tenſ	4a\	-tenſ
!	!	!LO:LB:g=original	!	!LO:LB:g=original	!	!LO:LB:g=original	!	!	!
=92	=92	=92	=92	=92	=92	=92	=92	=92	=92
2D\	#	2D/	est	2d\	est	2f#X\	est	2a\	est
4BB/	6	4BB/	qui	4d\	qui	4g\	qui	4b\	qui
=93	=93	=93	=93	=93	=93	=93	=93	=93	=93
4C/	.	(4C/	po-	2e\	po-	2g\	po-	2a\	po-
4AA/	.	4AA/)	.	.	.	.	.	.	.
4D/	.	4D/	-tenſ	4d\	-tenſ	4f#X\	-tenſ	4a\	-tens
=94	=94	=94	=94	=94	=94	=94	=94	=94	=94
2GG/	.	2GG/	est	2d\	est	2g\	est	2b\	est
4G\	.	4G\	et	4d\	et	4g\	et	4b\	et
=95	=95	=95	=95	=95	=95	=95	=95	=95	=95
4c\	5	4c\	san-	4e\	san-	2e\	san-	4g/	San-
2B\	#6	2B\	-ctu(m)	2d\	-ctu(m)	.	.	2g#X\	-ctu(m)
.	.	.	.	.	.	4e\	-ctu(m)	.	.
!LO:LB:g=original	!	!	!	!	!	!	!	!LO:LB:g=original	!
=96	=96	=96	=96	=96	=96	=96	=96	=96	=96
2A\	.	2A\	no-	2c\	no-	2e\	no-	2a\	no-
[4E\	5	[4E\	-men	[4B\	-men	[4e\	-men	[4g\	-men
=97	=97	=97	=97	=97	=97	=97	=97	=97	=97
4E\]	.	4E\]	.	4B\]	.	4e\]	.	4g\]	.
!	!	!LO:SIC:v:l:s=e-	!	!LO:SIC:v:l:s=e-	!	!	!	!LO:SIC:v:l:s=e-	!
2B\	#	2B\	ei-	2B\	ei-	2d#X\	e-	2f#X\	ei-
=98	=98	=98	=98	=98	=98	=98	=98	=98	=98
!	!	!LO:SIC:v:l:s=-ius	!	!LO:SIC:v:l:s=-ius	!	!	!	!LO:SIC:v:l:s=-ius	!
2.E\	#	2E\	-uſ	2B\	-uſ	4e\	-ius	4g\	-uſ
.	.	.	.	.	.	4g\	san-	4b\	san-
.	.	4r	.	4r	.	4f#X\	-ctu(m)	4a\	-ctu(m)
!	!	!LO:LB:g=original	!	!LO:LB:g=original	!	!LO:LB:g=original	!	!	!
=99	=99	=99	=99	=99	=99	=99	=99	=99	=99
4E\	.	4E\	et	4B\	et	4e\	no-	4g\	no-
4F#X\	.	4F#X\	sanc-	4A\	San-	2dn\	-men	2a\	-men
4D\	.	4D\	-tu(m)	4d\	-ctum	.	.	.	.
=100	=100	=100	=100	=100	=100	=100	=100	=100	=100
8G\L	.	8G\L	no-	8B\L	no-	2.d\	san-	2.b\	san-
!LO:SIC:v:s=F#	!	!	!	!	!	!	!	!	!
8F\	.	8F#X\	.	8A\	.	.	.	.	.
8G\	.	8G\	.	8B\	.	.	.	.	.
8A\	.	8A\	.	8c\	.	.	.	.	.
8B\	.	8B\	.	8d\	.	.	.	.	.
8G\J	.	8G\J	.	8B\J	.	.	.	.	.
=101	=101	=101	=101	=101	=101	=101	=101	=101	=101
8C/L	.	8C/L	.	2.e\	.	2.e\	-ctum	2.cc\	-ctum
8BB/	.	8BB/	.	.	.	.	.	.	.
8C/	.	8C/	.	.	.	.	.	.	.
8D/	.	8D/	.	.	.	.	.	.	.
8E/	.	8E/	.	.	.	.	.	.	.
8C/J	.	8C/J	.	.	.	.	.	.	.
!LO:LB:g=original	!	!	!	!	!	!	!	!LO:PB:g=original	!
=102	=102	=102	=102	=102	=102	=102	=102	=102	=102
2D\	#	2D\	.	2d\	.	[4f#X\	no-	2a\	no-
.	.	.	.	.	.	4f#\]	-men	.	.
[4G\	.	[4G\	-men	[4d\	-men	[4g\	.	[4b\	-men
=103	=103	=103	=103	=103	=103	=103	=103	=103	=103
4G\]	.	4G\]	.	4d\]	.	4g\]	.	4b\]	.
!	!	!LO:SIC:v:l:s=e-	!	!LO:SIC:v:l:s=e-	!	!LO:SIC:v:l:s=e	!	!LO:SIC:v:l:s=e-	!
2D\	#	2D\	ei-	2d\	ei-	2f#X\	ei-	2a\	ei-
=104	=104	=104	=104	=104	=104	=104	=104	=104	=104
!	!	!LO:SIC:v:l:s=-ius	!	!LO:SIC:v:l:s=-ius	!	!LO:SIC:v:l:s=-ius	!	!LO:SIC:v:l:s=-ius	!
4G\	.	4GG/	-uſ	4d\	-uſ	2g\	-uſ	2b\	-uſ
4G\	.	4G\	Sanc-	4d\	san-	.	.	.	.
4E\	#6	4E\	-tu(m)	4c#X\	-ctu(m)	4r	.	4r	.
!	!	!LO:LB:g=original	!	!LO:LB:g=original	!	!	!	!	!
=105	=105	=105	=105	=105	=105	=105	=105	=105	=105
2.D\	.	2.D\	no-	2.d\	no-	4r	.	4r	.
.	.	.	.	.	.	4b\	san-	4dd\	san-
.	.	.	.	.	.	4g\	-ctum	4b\	-ctum
!	!	!	!	!	!	!LO:LB:g=original	!	!	!
=106	=106	=106	=106	=106	=106	=106	=106	=106	=106
2.D\	.	2.D\	-men	2.d\	-men	2f#X\	no-	2a\	no-
.	.	.	.	.	.	[4g\	-men	[4b\	-men
=107	=107	=107	=107	=107	=107	=107	=107	=107	=107
!	!	!	!	!LO:SIC:v:l:s=e-	!	!	!	!	!
2.D\	.	2.D\	e-	2.d\	ei-	4g\]	.	4b\]	.
!	!	!	!	!	!	!	!	!LO:SIC:v:l:s=e-	!
!	!	!	!	!	!	!	!	!LO:LB:g=original	!
.	.	.	.	.	.	2f#X\	e-	2a\	ei-
=108	=108	=108	=108	=108	=108	=108	=108	=108	=108
!	!	!	!	!LO:SIC:v:l:s=-ius	!	!	!	!LO:SIC:v:l:s=-ius	!
2.GG/	.	2GG/	-iuſ	2d;\	-uſ	2g\	-iuſ	2b\	-uſ
!	!	!	!	!	!	!LO:TX:b:i:t=Et Misericordia Tacet	!	!	!
.	.	4r	.	4r	.	4r	.	4r	.
!LO:PB:g=original	!	!LO:PB:g=original	!	!LO:PB:g=original	!	!LO:PB:g=original	!	!LO:LB:g=original	!
=109||	=109||	=109||	=109||	=109||	=109||	=109||	=109||	=109	=109
*k[f#]	*	*k[]	*	*k[]	*	*k[]	*	*k[]	*
*M4/4	*	*M4/4	*	*M4/4	*	*M4/4	*	*M4/4	*
*met(c)	*	*met(c)	*	*met(c)	*	*met(c)	*	*met(c)	*
!LO:TX:a:i:t=Canto Solo	!	!LO:TX:t=Et Misericordia Tacet	!	!LO:TX:t=Et Misericordia Tacet	!	!	!	!LO:TX:t=Solo	!
4GG/	.	1ryy	.	1ryy	.	1ryy	.	4.g/	Et
2G\	.	.	.	.	.	.	.	.	.
.	.	.	.	.	.	.	.	8g/	mi-
.	.	.	.	.	.	.	.	8a/L	-se-
.	.	.	.	.	.	.	.	8d/J	.
4F#X\	.	.	.	.	.	.	.	8dd\L	-ri-
.	.	.	.	.	.	.	.	8cc\J	.
=110	=110	=110	=110	=110	=110	=110	=110	=110	=110
4G\	.	1ryy	.	1ryy	.	1ryy	.	4b\	-cor-
4BB/	6	.	.	.	.	.	.	8a\	-di-
.	.	.	.	.	.	.	.	8g\	-a
!	!	!	!	!	!	!	!	!LO:SIC:v:l:s=e-	!
4C/	36	.	.	.	.	.	.	2a\	ei-
4D/	#	.	.	.	.	.	.	.	.
=111	=111	=111	=111	=111	=111	=111	=111	=111	=111
!	!	!	!	!	!	!	!	!LO:SIC:v:l:s=-ius	!
4G\	.	1ryy	.	1ryy	.	1ryy	.	4g\	-uſ
8F#\L	.	.	.	.	.	.	.	2dd\	a
8D\J	.	.	.	.	.	.	.	.	.
8E/L	7	.	.	.	.	.	.	.	.
8AA/J	.	.	.	.	.	.	.	.	.
8A\L	.	.	.	.	.	.	.	4cc#X\	pro-
8G\J	#	.	.	.	.	.	.	.	.
!	!	!	!	!	!	!	!	!LO:LB:g=original	!
=112	=112	=112	=112	=112	=112	=112	=112	=112	=112
4F#\	6	1ryy	.	1ryy	.	1ryy	.	16dd\LL	-ge-
.	.	.	.	.	.	.	.	16cc#X\	.
.	.	.	.	.	.	.	.	16dd\	.
.	.	.	.	.	.	.	.	16ee\JJ	.
4D\	.	.	.	.	.	.	.	16dd\LL	.
!	!	!	!	!	!	!	!	!LO:SIC:v:s=ff#	!
.	.	.	.	.	.	.	.	16ff\	.
.	.	.	.	.	.	.	.	16ee\	.
.	.	.	.	.	.	.	.	16dd\JJ	.
4D\	4 2	.	.	.	.	.	.	16ee\LL	.
.	.	.	.	.	.	.	.	16dd\	.
.	.	.	.	.	.	.	.	16ee\	.
!	!	!	!	!	!	!	!	!LO:SIC:v:s=ff#	!
.	.	.	.	.	.	.	.	16ff\JJ	.
4C#X\	36	.	.	.	.	.	.	16ee\LL	.
.	.	.	.	.	.	.	.	16gg\	.
!	!	!	!	!	!	!	!	!LO:SIC:v:s=ff#	!
.	.	.	.	.	.	.	.	16ff\	.
.	.	.	.	.	.	.	.	16ee\JJ	.
!LO:LB:g=original	!	!	!	!	!	!	!	!	!
=113	=113	=113	=113	=113	=113	=113	=113	=113	=113
4.D\	.	1ryy	.	1ryy	.	1ryy	.	8.ff#X\	-ni-
.	.	.	.	.	.	.	.	16ee\	.
.	.	.	.	.	.	.	.	4dd\	-e
8F#\	.	.	.	.	.	.	.	.	.
4G\	.	.	.	.	.	.	.	8b\L	in
.	.	.	.	.	.	.	.	8cc#X\J	.
4F#\	6	.	.	.	.	.	.	8dd\	.
.	.	.	.	.	.	.	.	8b\	pro-
=114	=114	=114	=114	=114	=114	=114	=114	=114	=114
4E\	7	1ryy	.	1ryy	.	1ryy	.	4.g/	-ge-
4AA/	.	.	.	.	.	.	.	.	.
.	.	.	.	.	.	.	.	8g/	-ni-
!	!	!	!	!	!	!	!	!LO:LB:g=original	!
=-	=-	=-	=-	=-	=-	=-	=-	=-	=-
4D\	.	.	.	.	.	.	.	8f#X/	-es
.	.	.	.	.	.	.	.	8a\	ti-
4F#X\	.	.	.	.	.	.	.	8.dd\	-men-
.	.	.	.	.	.	.	.	16cc\	-ti-
=115	=115	=115	=115	=115	=115	=115	=115	=115	=115
8G\L	.	1ryy	.	1ryy	.	1ryy	.	4b\	-buſ
8A\	.	.	.	.	.	.	.	.	.
8B\	.	.	.	.	.	.	.	8r	.
8G\J	.	.	.	.	.	.	.	8g\	ti-
4.E\	#6	.	.	.	.	.	.	16ccn\LL	-me(n)-
.	.	.	.	.	.	.	.	16b\	.
.	.	.	.	.	.	.	.	16cc\	.
.	.	.	.	.	.	.	.	16dd\JJ	.
.	.	.	.	.	.	.	.	16ee\LL	.
.	.	.	.	.	.	.	.	16dd\	.
8A\	.	.	.	.	.	.	.	16cc\	.
.	.	.	.	.	.	.	.	16b\JJ	.
=116	=116	=116	=116	=116	=116	=116	=116	=116	=116
4.F#\	.	1ryy	.	1ryy	.	1ryy	.	8dd\L	.
.	.	.	.	.	.	.	.	16cc#X\L	.
.	.	.	.	.	.	.	.	16b\JJ	.
.	.	.	.	.	.	.	.	16a/LL	-ti-
.	.	.	.	.	.	.	.	16g/JJ	.
8G\	.	.	.	.	.	.	.	16f#X/LL	-buſ
.	.	.	.	.	.	.	.	16e/JJ	.
!LO:TX:t=P:problem=mixed beam	!	!	!	!	!	!	!	!	!
8A\L	.	.	.	.	.	.	.	8.d/L	e-
8G\	.	.	.	.	.	.	.	.	.
.	.	.	.	.	.	.	.	16e/Jk	.
8A\	.	.	.	.	.	.	.	4e/	.
8AA/J	.	.	.	.	.	.	.	.	.
!LO:LB:g=original	!	!	!	!	!	!	!	!LO:LB:g=original	!
=117	=117	=117	=117	=117	=117	=117	=117	=117	=117
4D/	.	1ryy	.	1ryy	.	1ryy	.	4d/	-um
8BB/L	.	.	.	.	.	.	.	2g/	a
8GG/J	.	.	.	.	.	.	.	.	.
8AA/L	.	.	.	.	.	.	.	.	.
8DD/J	.	.	.	.	.	.	.	.	.
8D/L	.	.	.	.	.	.	.	4f#X/	pro-
8C/J	.	.	.	.	.	.	.	.	.
=118	=118	=118	=118	=118	=118	=118	=118	=118	=118
8BB/L	6	1ryy	.	1ryy	.	1ryy	.	16g/LL	-ge-
!	!	!	!	!	!	!	!	!LO:SIC:v:s=f#	!
.	.	.	.	.	.	.	.	16f/	.
8GG/J	.	.	.	.	.	.	.	16g/	.
.	.	.	.	.	.	.	.	16a/JJ	.
2G\	4 2	.	.	.	.	.	.	16g\LL	.
.	.	.	.	.	.	.	.	16b\	.
.	.	.	.	.	.	.	.	16a\	.
.	.	.	.	.	.	.	.	16g\JJ	.
.	.	.	.	.	.	.	.	16a\LL	.
.	.	.	.	.	.	.	.	16g\	.
.	.	.	.	.	.	.	.	16a\	.
.	.	.	.	.	.	.	.	16b\JJ	.
4F#X\	.	.	.	.	.	.	.	16a\LL	.
.	.	.	.	.	.	.	.	16cc\	.
.	.	.	.	.	.	.	.	16b\	.
.	.	.	.	.	.	.	.	16a\JJ	.
=119	=119	=119	=119	=119	=119	=119	=119	=119	=119
4.G\	.	1ryy	.	1ryy	.	1ryy	.	8.b\	.
.	.	.	.	.	.	.	.	16a\	-ni-
.	.	.	.	.	.	.	.	4g\	-e
8BB/	.	.	.	.	.	.	.	.	.
4C/	.	.	.	.	.	.	.	8ee\L	in
!	!	!	!	!	!	!	!	!LO:SIC:v:s=ff#	!
.	.	.	.	.	.	.	.	8ff\J	.
4BB/	.	.	.	.	.	.	.	8gg\	.
.	.	.	.	.	.	.	.	8ee\	pro-
!	!	!	!	!	!	!	!	!LO:LB:g=original	!
=120	=120	=120	=120	=120	=120	=120	=120	=120	=120
4AA/	.	1ryy	.	1ryy	.	1ryy	.	4.cc\	-ge-
4DD/	.	.	.	.	.	.	.	.	.
.	.	.	.	.	.	.	.	8cc\	-ni-
4GG/	.	.	.	.	.	.	.	8b\	-es
.	.	.	.	.	.	.	.	8dd\	ti-
4BB/	6 -5	.	.	.	.	.	.	8.gg\	-men-
.	.	.	.	.	.	.	.	16ffn\	-ti-
=121	=121	=121	=121	=121	=121	=121	=121	=121	=121
8C/L	.	1ryy	.	1ryy	.	1ryy	.	4ee\	-buſ
8D/	.	.	.	.	.	.	.	.	.
8E/	.	.	.	.	.	.	.	8r	.
8C/J	.	.	.	.	.	.	.	8cc\	ti-
4.AA/	.	.	.	.	.	.	.	16f#X/LL	-me(n)-
.	.	.	.	.	.	.	.	16e/	.
.	.	.	.	.	.	.	.	16f#/	.
.	.	.	.	.	.	.	.	16g/JJ	.
.	.	.	.	.	.	.	.	16a/LL	.
.	.	.	.	.	.	.	.	16f#/	.
8D/	.	.	.	.	.	.	.	16e/	.
.	.	.	.	.	.	.	.	16d/JJ	.
!LO:LB:g=original	!	!	!	!	!	!	!	!	!
=122	=122	=122	=122	=122	=122	=122	=122	=122	=122
4.BB/	.	1ryy	.	1ryy	.	1ryy	.	16g\LL	.
.	.	.	.	.	.	.	.	16a\	.
.	.	.	.	.	.	.	.	16b\	.
.	.	.	.	.	.	.	.	16cc\JJ	.
.	.	.	.	.	.	.	.	16dd\LL	-ti-
.	.	.	.	.	.	.	.	16b\JJ	.
8C/	.	.	.	.	.	.	.	16a\LL	-buſ
.	.	.	.	.	.	.	.	16g\JJ	.
!	!	!	!	!	!	!	!	!LO:PB:g=original	!
=-	=-	=-	=-	=-	=-	=-	=-	=-	=-
8D/L	.	.	.	.	.	.	.	8d/	e-
8C/	.	.	.	.	.	.	.	4.a\	.
8D/	.	.	.	.	.	.	.	.	.
8DD/J	.	.	.	.	.	.	.	.	.
=123	=123	=123	=123	=123	=123	=123	=123	=123	=123
4.GG/	.	1ryy	.	1ryy	.	1ryy	.	8g\	-um
.	.	.	.	.	.	.	.	8dd\	ti-
.	.	.	.	.	.	.	.	8b\L	-men-
8G\	.	.	.	.	.	.	.	8dd\J	.
8E\L	.	.	.	.	.	.	.	8g\L	.
8G\	.	.	.	.	.	.	.	8gg\J	.
8C\	.	.	.	.	.	.	.	8ee\L	.
8c\J	.	.	.	.	.	.	.	8gg\J	.
=124	=124	=124	=124	=124	=124	=124	=124	=124	=124
8A\L	.	1ryy	.	1ryy	.	1ryy	.	16cc\LL	.
.	.	.	.	.	.	.	.	16dd\	.
8G\	.	.	.	.	.	.	.	16b\	.
.	.	.	.	.	.	.	.	16cc\JJ	.
8F#X\	.	.	.	.	.	.	.	16a\LL	.
.	.	.	.	.	.	.	.	16b\	.
8E\J	.	.	.	.	.	.	.	16g\	.
.	.	.	.	.	.	.	.	16a\JJ	.
4.D/	.	.	.	.	.	.	.	16f#X/LL	.
.	.	.	.	.	.	.	.	16d/	.
.	.	.	.	.	.	.	.	16e/	.
.	.	.	.	.	.	.	.	16f#/JJ	.
.	.	.	.	.	.	.	.	16g\LL	.
.	.	.	.	.	.	.	.	16a\	.
8C/	.	.	.	.	.	.	.	16b\	.
.	.	.	.	.	.	.	.	16cc\JJ	.
!	!	!	!	!	!	!	!	!LO:LB:g=original	!
=125	=125	=125	=125	=125	=125	=125	=125	=125	=125
4BB/	6	1ryy	.	1ryy	.	1ryy	.	8dd\L	.
.	.	.	.	.	.	.	.	16cc\L	.
.	.	.	.	.	.	.	.	16b\JJ	.
4AA/	6 #	.	.	.	.	.	.	16cc\LL	.
.	.	.	.	.	.	.	.	16dd\	.
.	.	.	.	.	.	.	.	16ee\	.
.	.	.	.	.	.	.	.	16ff#X\JJ	.
8GG/L	.	.	.	.	.	.	.	8gg\L	.
8AA/	.	.	.	.	.	.	.	16ff#\L	.
.	.	.	.	.	.	.	.	16ee\JJ	.
8BB/	.	.	.	.	.	.	.	16dd\LL	-ti-
.	.	.	.	.	.	.	.	16cc\JJ	.
8C/J	.	.	.	.	.	.	.	16b\LL	-buſ
.	.	.	.	.	.	.	.	16a\JJ	.
=126	=126	=126	=126	=126	=126	=126	=126	=126	=126
8D/L	.	1ryy	.	1ryy	.	1ryy	.	8.g\L	e-
8C/	.	.	.	.	.	.	.	.	.
.	.	.	.	.	.	.	.	16a\Jk	.
8D/	.	.	.	.	.	.	.	4a\	.
8DD/J	.	.	.	.	.	.	.	.	.
!LO:LB:g=original	!	!	!	!	!	!	!	!	!
=-	=-	=-	=-	=-	=-	=-	=-	=-	=-
8GG/L	.	.	.	.	.	.	.	4g\	-um
8AA/	.	.	.	.	.	.	.	.	.
8BB/	.	.	.	.	.	.	.	8r	.
8GG/J	.	.	.	.	.	.	.	8g\	ti-
=127	=127	=127	=127	=127	=127	=127	=127	=127	=127
4AA/	#6	1ryy	.	1ryy	.	1ryy	.	4cc\	-men-
4GG/	.	.	.	.	.	.	.	8b\	-ti-
.	.	.	.	.	.	.	.	8b\	-buſ
4D/	.	.	.	.	.	.	.	2a\	e-
4DD;/	.	.	.	.	.	.	.	.	.
!	!	!	!	!	!	!	!	!LO:LB:g=original	!
=128	=128	=128	=128	=128	=128	=128	=128	=128	=128
!LO:TX:t=P:problem=mixed beam	!	!	!	!	!	!	!	!	!
8GG/L	.	1ryy	.	1ryy	.	1ryy	.	4g\	-um
8G\J	.	.	.	.	.	.	.	.	.
8Fn\L	.	.	.	.	.	.	.	4r	.
16G\L	.	.	.	.	.	.	.	.	.
16F\JJ	.	.	.	.	.	.	.	.	.
8E/L	.	.	.	.	.	.	.	2r;	.
16D/L	.	.	.	.	.	.	.	.	.
16C/JJ	.	.	.	.	.	.	.	.	.
8BB/L	.	.	.	.	.	.	.	.	.
8C/J	.	.	.	.	.	.	.	.	.
=129	=129	=129	=129	=129	=129	=129	=129	=129	=129
!LO:TX:t=P:problem=mixed beam	!	!	!	!	!	!	!	!	!
8D\L	.	1ryy	.	1ryy	.	1ryy	.	1ryy	.
8C\	.	.	.	.	.	.	.	.	.
8D\	.	.	.	.	.	.	.	.	.
8DD/J	.	.	.	.	.	.	.	.	.
4GG/	.	.	.	.	.	.	.	.	.
4r	.	.	.	.	.	.	.	.	.
!LO:LB:g=original	!	!	!	!	!	!	!	!LO:LB:g=original	!
=130||	=130||	=130||	=130||	=130||	=130||	=130||	=130||	=130||	=130||
*M4/4	*	*M4/4	*	*M4/4	*	*M4/4	*	*M4/4	*
*met(c)	*	*met(c)	*	*met(c)	*	*met(c)	*	*met(c)	*
!LO:TX:b:t=Fecit potentiam	!	!	!	!	!	!	!	!	!
!LO:TX:a:t=Tutti	!	!LO:TX:t=Tutti	!	!	!	!LO:TX:a:i:t=Tutti	!	!LO:TX:a:t=Tutti	!
4c\	.	4c\	Fe-	4e\	Fe-	4g\	Fe-	2r	.
8c\L	.	8c\	-cit	8e\	-cit	8g\	-cit	.	.
8c\J	.	8c\	po-	8e\	po-	8g\	po-	.	.
8c\L	.	8c\L	-ten-	[2e\	-ten-	[2g\	-ten-	4cc\	Fe-
16B\L	.	16B\L	.	.	.	.	.	.	.
16A\	.	16A\	.	.	.	.	.	.	.
16G\	.	16G\	.	.	.	.	.	8cc\	-cit
16F\	.	16F\	.	.	.	.	.	.	.
16E\	.	16E\	.	.	.	.	.	8cc\	po-
16D\JJ	.	16D\JJ	.	.	.	.	.	.	.
=131	=131	=131	=131	=131	=131	=131	=131	=131	=131
8C\L	.	8C\L	.	8e\]	.	2g\_	.	8cc\L	-ten-
16D\L	.	16D\L	.	(16g\	-ti-	.	.	16b\L	.
16E\	.	16E\	.	16f\)	.	.	.	16a\JJ	.
16F\	.	16F\	.	8e\	-am	.	.	16g/LL	.
16G\	.	16G\	.	.	.	.	.	16f/	.
16A\	.	16A\	.	8d\	po-	.	.	16e/	.
16B\JJ	.	16B\JJ	.	.	.	.	.	16d/JJ	.
8c\L	.	8c\	.	8e\	-ten-	8.g\]	.	8c/L	.
16e\L	.	16e\LL	-ti-	16g\	-ti-	.	.	16d/L	.
16d\J	.	16d\JJ	.	16f\	.	16g\	-ti-	16e/JJ	.
8c\	.	8c\	-am	8e\	-am	8g\	-am	16f/LL	.
.	.	.	.	.	.	.	.	16g/	.
8G\J	.	8G\	po-	8d\	po-	8g\	po-	16a/	.
.	.	.	.	.	.	.	.	16b/JJ	.
!	!	!LO:LB:g=original	!	!	!	!	!	!	!
=132	=132	=132	=132	=132	=132	=132	=132	=132	=132
(8.E\L	6	8.E\	-ten-	8.c\	-ten-	8.g\	-ten-	8.cc\	.
16D\K)	.	16D\	-ti-	(16d\	-ti-	16g\	-ti-	16cc\	-ti-
8C\	.	8C/	-am	8e\)	-am	8g\	-am	8cc\	-am
8c\J	.	8c\	in	8e\	in	8g\	in	8cc\	in
!LO:LB:g=original	!	!	!	!LO:LB:g=original	!	!LO:LB:g=original	!	!LO:LB:g=original	!
=-	=-	=-	=-	=-	=-	=-	=-	=-	=-
8B\L	.	8B\	bra-	8d\	bra-	8g\	bra-	8g\	bra-
16A\L	.	16A\	-chi-	16d\	-chi-	16g\	-chi-	16a\	-chi-
16G\JJ	.	16G\	-o	16d\	-o	16g\	-o	16b\	-o
4A\	7	4A\	su-	4c\	su-	8g\L	su-	4cc\	su-
.	#6	.	.	.	.	8f#X\J	.	.	.
=133	=133	=133	=133	=133	=133	=133	=133	=133	=133
4G\	.	4G\	-o	4d\	-o	8g\	-o	4b\	-o
.	.	.	.	.	.	8d\	dis-	.	.
8r	.	8r	.	8r	.	4g\	-per-	8r	.
8G\	.	8G\	dis-	8d\	dis-	.	.	8b\	dis-
4c\	.	4c\	-per-	4e\	-per-	8e\	-sit	4cc\	-per-
.	.	.	.	.	.	8e\	su-	.	.
8A\L	.	8A\	-sit	8c\	-sit	4a\	-per-	8cc\	-sit
8A\J	.	8A\	Su-	8c\	su-	.	.	8cc\	su-
=134	=134	=134	=134	=134	=134	=134	=134	=134	=134
4d\	#	4d\	-per-	4f#X\	-per-	8f#X\	-bos	4dd\	-per-
.	.	.	.	.	.	8f#\	su-	.	.
8B\L	.	8B\	-bos	8d\	-boſ	8b\	-per-	8dd\	-bos
8B\J	.	8B\	Su-	8d\	su-	8a\	-bos	8dd\	su-
!	!	!LO:LB:g=original	!	!	!	!	!	!	!
=-	=-	=-	=-	=-	=-	=-	=-	=-	=-
8e\L	.	8e\	-per-	8e\	-per-	8g\	men-	8b\	-per-
8d\	.	8d\	-bos	8f#\	-boſ	8f#X\	-te	8b\	-boſ
8c\	.	8c\	men-	8c\	men-	4e\	cor-	8cc\	men-
8B\J	.	8B\	-te	8d\	-te	.	.	8dd\	-te
!	!	!	!	!	!	!LO:LB:g=original	!	!LO:LB:g=original	!
=135	=135	=135	=135	=135	=135	=135	=135	=135	=135
8A\L	.	8A\	cor-	8c\	cor-	8f#X\	-diſ	8a\	cor-
8G\J	.	8G\	-diſ	8d\	-diſ	4g\	su-	8b\	-diſ
4D\	.	4D\	su-	4d\	su-	.	.	4a\	su-
.	.	.	.	.	.	8f#X\	.	.	.
!	!	!	!	!LO:LB:g=original	!	!	!	!	!
=-	=-	=-	=-	=-	=-	=-	=-	=-	=-
4G\	.	4G\	-i	8d\	-i	4g\	-i	4b\	-i
.	.	.	.	8d\	dis-	.	.	.	.
8D\L	#	8r	.	4d\	-per-	4r	.	8r	.
8D\J	.	8D\	dis-	.	.	.	.	8a\	dis-
!LO:PB:g=original	!	!	!	!	!	!	!	!	!
=136	=136	=136	=136	=136	=136	=136	=136	=136	=136
8G\L	.	8G\L	-per-	8B/	-sit	4r	.	8b\L	-per-
16B\L	.	16B\L	.	8G/	su-	.	.	16dd\L	.
16A\JJ	.	16A\JJ	.	.	.	.	.	16cc\JJ	.
8G\L	.	8G\	-sit	4d\	-per-	8r	.	8b\	-sit
8D\J	.	(8D/	su-	.	.	8d\	dis-	8a\	su-
8BB/L	.	8BB/)	-per-	4G/	-boſ	8g\L	-per-	8b\	-per-
8GG/	.	8GG/	-boſ	.	.	16b\L	.	8b\	-boſ
.	.	.	.	.	.	16a\JJ	.	.	.
8BB/	.	8BB/	men-	8d\	men-	8g\	-sit	8b\	men-
8D/J	.	8D/	-te	8d\	-te	8f#X\	su-	8a\	-te
=137	=137	=137	=137	=137	=137	=137	=137	=137	=137
4G\	.	4G\	cor-	4d\	cor-	8g\	-per-	4b\	cor-
.	.	.	.	.	.	8g\	-bos	.	.
4C\	.	4C/	-diſ	4e\	-diſ	8g\	men-	4cc\	-diſ
.	4	.	.	.	.	8g\	-te	.	.
2D\	#3	2D\	su-	2d\	su-	8g\	cor-	2a\	su-
.	.	.	.	.	.	8g\	-diſ	.	.
.	.	.	.	.	.	4f#X\	su-	.	.
!	!	!	!	!	!	!LO:LB:g=original	!	!	!
=138	=138	=138	=138	=138	=138	=138	=138	=138	=138
4GG/	.	4GG/	-i	8d\	-i	4g\	-i	4b\	-i
.	.	.	.	8d\	dis-	.	.	.	.
8G\L	.	8r	.	4g\	-per-	8r	.	4r	.
8G\J	.	8G\	dis-	.	.	8g\	dis-	.	.
!	!	!LO:LB:g=original	!	!	!	!	!	!LO:LB:g=original	!
=-	=-	=-	=-	=-	=-	=-	=-	=-	=-
8c\L	.	8c\L	-per-	8e\	-sit	4g\	-per-	4r	.
16e\L	.	16e\L	.	8c\	su-	.	.	.	.
16d\J	.	16d\JJ	.	.	.	.	.	.	.
8c\	.	8c\	-sit	4g\	-per-	8g\	-sit	8r	.
8G\J	.	8G\	su-	.	.	8g\	su-	8g\	dis-
!	!	!	!	!LO:LB:g=original	!	!	!	!	!
=139	=139	=139	=139	=139	=139	=139	=139	=139	=139
8E\L	.	8E\	-per-	4c\	-boſ	8g\	-per-	8cc\L	-per-
8C\	.	8C/	-bos	.	.	8g\	-bos	16ee\L	.
.	.	.	.	.	.	.	.	16dd\JJ	.
8E\	.	8E\	men-	8e\	men-	8g\	men-	8cc\	-sit
8G\J	.	8G\	-te	8d\	-te	8g\	-te	8b\	su-
!LO:LB:g=original	!	!	!	!	!	!	!	!	!
=-	=-	=-	=-	=-	=-	=-	=-	=-	=-
4c\	.	4c\	cor-	4c\	cor-	4e\	Cor-	8cc\	-per-
.	.	.	.	.	.	.	.	8cc\	-boſ
4F\	.	4F\	-diſ	4c\	-diſ	4f\	-diſ	8a\	men-
.	.	.	.	.	.	.	.	8a\	-te
=140	=140	=140	=140	=140	=140	=140	=140	=140	=140
2G\	.	2G\	su-	(4c\	su-	2d\	su-	8g/	cor-
.	.	.	.	.	.	.	.	8g/	-diſ
.	.	.	.	4B\)	.	.	.	4g/	su-
4C/	.	4C/	-i	4c\	-i	4e;\	-i	4g/	-i
4r;	.	4r	.	4r	.	4r	.	4r	.
!LO:LB:g=original	!	!LO:LB:g=original	!	!LO:LB:g=original	!	!LO:LB:g=original	!	!LO:PB:g=original	!
=141||	=141||	=141||	=141||	=141||	=141||	=141||	=141||	=141||	=141||
*k[]	*	*k[]	*	*k[]	*	*k[]	*	*k[]	*
*M3/8	*	*M3/8	*	*M3/8	*	*M3/8	*	*M3/8	*
!LO:TX:b:t=Deposuit potentiam	!	!	!	!	!	!	!	!	!
!LO:TX:a:i:t=Tenore Solo	!	!LO:TX:t=Deposuit Tacet	!	!LO:TX:a:t=Solo	!	!LO:TX:i:t=Deposuit Tacet	!	!LO:TX:t=Deposuit Tacet	!
16A\LL	.	4.ryy	.	8r	.	4.ryy	.	4.ryy	.
16B\J	.	.	.	.	.	.	.	.	.
8c\	.	.	.	8r	.	.	.	.	.
8G#X\J	.	.	.	8e\	De-	.	.	.	.
=142	=142	=142	=142	=142	=142	=142	=142	=142	=142
4.A\	.	4.ryy	.	8.c\	-po-	4.ryy	.	4.ryy	.
.	.	.	.	16B\	-su-	.	.	.	.
.	.	.	.	8A\	-it	.	.	.	.
=143	=143	=143	=143	=143	=143	=143	=143	=143	=143
16A\LL	.	4.ryy	.	4.e\	po-	4.ryy	.	4.ryy	.
16B\J	.	.	.	.	.	.	.	.	.
8c\	.	.	.	.	.	.	.	.	.
8A\J	.	.	.	.	.	.	.	.	.
=144	=144	=144	=144	=144	=144	=144	=144	=144	=144
!LO:TX:t=P:problem=mixed beam	!	!	!	!	!	!	!	!	!
8D\L	.	4.ryy	.	8f\	-ten-	4.ryy	.	4.ryy	.
8E\	.	.	.	16e\LL	-teſ	.	.	.	.
.	.	.	.	16d\JJ	.	.	.	.	.
8EE/J	.	.	.	16c\LL	de	.	.	.	.
.	.	.	.	16B\JJ	.	.	.	.	.
=145	=145	=145	=145	=145	=145	=145	=145	=145	=145
!LO:TX:t=P:problem=mixed beam	!	!	!	!	!	!	!	!	!
8.AA/L	.	4.ryy	.	16c\LL	se-	4.ryy	.	4.ryy	.
.	.	.	.	16B\JJ	.	.	.	.	.
.	.	.	.	8A\	-de	.	.	.	.
16A\L	.	.	.	.	.	.	.	.	.
16B\	.	.	.	8r	.	.	.	.	.
16A\JJ	.	.	.	.	.	.	.	.	.
!LO:LB:g=original	!	!	!	!	!	!	!	!	!
=146	=146	=146	=146	=146	=146	=146	=146	=146	=146
8c\L	.	4.ryy	.	8c\	et	4.ryy	.	4.ryy	.
8E\	.	.	.	8c\	e-	.	.	.	.
8D\J	.	.	.	8c\	-xal-	.	.	.	.
!	!	!	!	!LO:LB:g=original	!	!	!	!	!
=147	=147	=147	=147	=147	=147	=147	=147	=147	=147
8C/L	.	4.ryy	.	16c\LL	-ta-	4.ryy	.	4.ryy	.
.	.	.	.	32B\L	.	.	.	.	.
.	.	.	.	32c\JJJ	.	.	.	.	.
8BB/	.	.	.	16d\LL	.	.	.	.	.
.	.	.	.	16e\	.	.	.	.	.
8GG/J	.	.	.	16f\	.	.	.	.	.
.	.	.	.	16d\JJ	.	.	.	.	.
=148	=148	=148	=148	=148	=148	=148	=148	=148	=148
8C/L	.	4.ryy	.	16c\LL	.	4.ryy	.	4.ryy	.
.	.	.	.	32B\L	.	.	.	.	.
.	.	.	.	32c\JJJ	.	.	.	.	.
8BB/	.	.	.	16d\LL	.	.	.	.	.
.	.	.	.	16e\	.	.	.	.	.
8GG/J	.	.	.	16f\	.	.	.	.	.
.	.	.	.	16d\JJ	.	.	.	.	.
=149	=149	=149	=149	=149	=149	=149	=149	=149	=149
8.C/L	.	4.ryy	.	8c\	.	4.ryy	.	4.ryy	.
.	.	.	.	4e\	.	.	.	.	.
16C/L	.	.	.	.	.	.	.	.	.
16E/	.	.	.	.	.	.	.	.	.
16C/JJ	.	.	.	.	.	.	.	.	.
=150	=150	=150	=150	=150	=150	=150	=150	=150	=150
8.F\L	.	4.ryy	.	8A\	.	4.ryy	.	4.ryy	.
.	.	.	.	4c\	.	.	.	.	.
16F\L	.	.	.	.	.	.	.	.	.
16A\	.	.	.	.	.	.	.	.	.
16F\JJ	.	.	.	.	.	.	.	.	.
=151	=151	=151	=151	=151	=151	=151	=151	=151	=151
8.D\L	.	4.ryy	.	8F/	.	4.ryy	.	4.ryy	.
.	.	.	.	4f\	-vit	.	.	.	.
16F\L	.	.	.	.	.	.	.	.	.
16A\	.	.	.	.	.	.	.	.	.
16B\JJ	.	.	.	.	.	.	.	.	.
=152	=152	=152	=152	=152	=152	=152	=152	=152	=152
*	*	*	*	*Xtuplet	*	*	*	*	*
!LO:TX:t=P:problem=mixed beam	!	!	!	!	!	!	!	!	!
8c\L	.	4.ryy	.	24e\LL	hu-	4.ryy	.	4.ryy	.
.	.	.	.	24d\	.	.	.	.	.
.	.	.	.	24c\JJ	.	.	.	.	.
8G\	.	.	.	8.d\	.	.	.	.	.
8GG/J	.	.	.	.	.	.	.	.	.
.	.	.	.	16c\	-mi-	.	.	.	.
!LO:LB:g=original	!	!	!	!LO:PB:g=original	!	!	!	!	!
=153	=153	=153	=153	=153	=153	=153	=153	=153	=153
8.C\L	.	4.ryy	.	8c\	-leſ	4.ryy	.	4.ryy	.
.	.	.	.	8g\	e-	.	.	.	.
16C\L	.	.	.	.	.	.	.	.	.
16E\	.	.	.	8c\	-xal-	.	.	.	.
16F#X\JJ	.	.	.	.	.	.	.	.	.
=154	=154	=154	=154	=154	=154	=154	=154	=154	=154
!LO:TX:t=P:problem=mixed beam	!	!	!	!	!	!	!	!	!
8.G\L	.	4.ryy	.	8c\	-ta-	4.ryy	.	4.ryy	.
.	.	.	.	16B\LL	.	.	.	.	.
16GG/L	.	.	.	16A\JJ	.	.	.	.	.
16BB/	.	.	.	8B\	-vit	.	.	.	.
16GG#X/JJ	.	.	.	.	.	.	.	.	.
=155	=155	=155	=155	=155	=155	=155	=155	=155	=155
8.AA/L	.	4.ryy	.	8r	.	4.ryy	.	4.ryy	.
.	.	.	.	8e\	e-	.	.	.	.
16AA/L	.	.	.	.	.	.	.	.	.
16C/	.	.	.	8A\	-xal-	.	.	.	.
16D/JJ	.	.	.	.	.	.	.	.	.
=156	=156	=156	=156	=156	=156	=156	=156	=156	=156
8.E\L	.	4.ryy	.	8A/L	-ta-	4.ryy	.	4.ryy	.
.	.	.	.	16G#X/L	.	.	.	.	.
16E\L	.	.	.	16F/JJ	.	.	.	.	.
16G#X\	.	.	.	8G#/	-vit	.	.	.	.
16E\JJ	.	.	.	.	.	.	.	.	.
=157	=157	=157	=157	=157	=157	=157	=157	=157	=157
8C/L	.	4.ryy	.	8r	.	4.ryy	.	4.ryy	.
8C/	.	.	.	8e\	e-	.	.	.	.
8C#X/J	.	.	.	8e\	-xal-	.	.	.	.
=158	=158	=158	=158	=158	=158	=158	=158	=158	=158
8D\L	.	4.ryy	.	16f\LL	-ta-	4.ryy	.	4.ryy	.
.	.	.	.	16d\	.	.	.	.	.
8D\	.	.	.	16f\	.	.	.	.	.
.	.	.	.	16a\	.	.	.	.	.
8D\J	.	.	.	16f\	.	.	.	.	.
.	.	.	.	16d\JJ	.	.	.	.	.
=159	=159	=159	=159	=159	=159	=159	=159	=159	=159
8G\L	.	4.ryy	.	16B\LL	.	4.ryy	.	4.ryy	.
.	.	.	.	16G\	.	.	.	.	.
8G\	.	.	.	16B\	.	.	.	.	.
.	.	.	.	16d\	.	.	.	.	.
8G\J	.	.	.	16B\	.	.	.	.	.
.	.	.	.	16G\JJ	.	.	.	.	.
!LO:LB:g=original	!	!	!	!LO:LB:g=original	!	!	!	!	!
=160	=160	=160	=160	=160	=160	=160	=160	=160	=160
8C/L	.	4.ryy	.	16e\LL	.	4.ryy	.	4.ryy	.
.	.	.	.	16c\	.	.	.	.	.
8C/	.	.	.	16e\	.	.	.	.	.
.	.	.	.	16g\	.	.	.	.	.
8C/J	.	.	.	16e\	.	.	.	.	.
.	.	.	.	16c\JJ	.	.	.	.	.
=161	=161	=161	=161	=161	=161	=161	=161	=161	=161
8F\L	.	4.ryy	.	16A/LL	.	4.ryy	.	4.ryy	.
.	.	.	.	16F/	.	.	.	.	.
8F\	.	.	.	16A/	.	.	.	.	.
.	.	.	.	16c/	.	.	.	.	.
8F\J	.	.	.	16A/	.	.	.	.	.
.	.	.	.	16F/JJ	.	.	.	.	.
=162	=162	=162	=162	=162	=162	=162	=162	=162	=162
8BB/L	.	4.ryy	.	16d\LL	.	4.ryy	.	4.ryy	.
.	.	.	.	16B\	.	.	.	.	.
8BB/	.	.	.	16d\	.	.	.	.	.
.	.	.	.	16f\	.	.	.	.	.
8BB/J	.	.	.	16d\	.	.	.	.	.
.	.	.	.	16B\JJ	.	.	.	.	.
=163	=163	=163	=163	=163	=163	=163	=163	=163	=163
8E\L	.	4.ryy	.	8G#X/L	.	4.ryy	.	4.ryy	.
8F\	.	.	.	8A/	.	.	.	.	.
8G#X\J	.	.	.	8B/J	.	.	.	.	.
=164	=164	=164	=164	=164	=164	=164	=164	=164	=164
8A\L	.	4.ryy	.	8c\L	.	4.ryy	.	4.ryy	.
8B\	.	.	.	8d\	.	.	.	.	.
8c\J	.	.	.	8e\J	.	.	.	.	.
=165	=165	=165	=165	=165	=165	=165	=165	=165	=165
8d\L	.	4.ryy	.	8f\	.	4.ryy	.	4.ryy	.
8G#X\	.	.	.	16e\LL	.	.	.	.	.
.	.	.	.	16d\JJ	.	.	.	.	.
8E\J	.	.	.	16c\LL	-vit	.	.	.	.
.	.	.	.	16B\JJ	.	.	.	.	.
=166	=166	=166	=166	=166	=166	=166	=166	=166	=166
!LO:TX:t=P:problem=mixed beam	!	!	!	!	!	!	!	!	!
8A\L	.	4.ryy	.	24c\LL	hu-	4.ryy	.	4.ryy	.
.	.	.	.	24B\	.	.	.	.	.
.	.	.	.	24A\JJ	.	.	.	.	.
8E\	.	.	.	8.B\	.	.	.	.	.
8EE/J	.	.	.	.	.	.	.	.	.
.	.	.	.	16A\	-mi-	.	.	.	.
!	!	!	!	!LO:LB:g=original	!	!	!	!	!
=167	=167	=167	=167	=167	=167	=167	=167	=167	=167
8.AA/L	.	4.ryy	.	4A\	-les	4.ryy	.	4.ryy	.
16AA/L	.	.	.	.	.	.	.	.	.
16C/	.	.	.	8r	.	.	.	.	.
16AA/JJ	.	.	.	.	.	.	.	.	.
!LO:LB:g=original	!	!	!	!	!	!	!	!	!
=168	=168	=168	=168	=168	=168	=168	=168	=168	=168
4D\	-6	4.ryy	.	4B-X\	e-	4.ryy	.	4.ryy	.
8C\	6	.	.	8A\	-xal-	.	.	.	.
=169	=169	=169	=169	=169	=169	=169	=169	=169	=169
4BB/	#6	4.ryy	.	4d\	-ta-	4.ryy	.	4.ryy	.
8AA/	4	.	.	8c#X\	-vit	.	.	.	.
=170	=170	=170	=170	=170	=170	=170	=170	=170	=170
4.D/	.	4.ryy	.	8d\L	e-	4.ryy	.	4.ryy	.
.	.	.	.	8e\J	.	.	.	.	.
.	.	.	.	8f\	-xal-	.	.	.	.
=171	=171	=171	=171	=171	=171	=171	=171	=171	=171
8C/L	6	4.ryy	.	8e\L	-ta-	4.ryy	.	4.ryy	.
8BB/	#6	.	.	8g#X\	.	.	.	.	.
8AA/J	n	.	.	[8a\J	.	.	.	.	.
=172	=172	=172	=172	=172	=172	=172	=172	=172	=172
!LO:TX:t=P:problem=mixed beam	!	!	!	!	!	!	!	!	!
8D#X\L	.	4.ryy	.	16a\]	.	4.ryy	.	4.ryy	.
.	.	.	.	16A/	-vit	.	.	.	.
8E\	.	.	.	8E/	hu-	.	.	.	.
8EE;/J	.	.	.	16B/	.	.	.	.	.
.	.	.	.	16A/	-mi-	.	.	.	.
=173	=173	=173	=173	=173	=173	=173	=173	=173	=173
8.AA/L	.	4.ryy	.	4A\	-les	4.ryy	.	4.ryy	.
16AA/L	.	.	.	.	.	.	.	.	.
16C/	.	.	.	8r	.	.	.	.	.
16AA/JJ	.	.	.	.	.	.	.	.	.
=174	=174	=174	=174	=174	=174	=174	=174	=174	=174
8.D\L	.	4.ryy	.	4.ryy	.	4.ryy	.	4.ryy	.
16D\L	.	.	.	.	.	.	.	.	.
16F\	.	.	.	.	.	.	.	.	.
16D\JJ	.	.	.	.	.	.	.	.	.
=175	=175	=175	=175	=175	=175	=175	=175	=175	=175
16E\LL	.	4.ryy	.	4.ryy	.	4.ryy	.	4.ryy	.
16D\J	.	.	.	.	.	.	.	.	.
8E\J	.	.	.	.	.	.	.	.	.
8EE/	.	.	.	.	.	.	.	.	.
!LO:PB:g=original	!	!	!	!	!	!	!	!	!
=176	=176	=176	=176	=176	=176	=176	=176	=176	=176
4.AA;/	.	4.ryy	.	4.ryy	.	4.ryy	.	4.ryy	.
!LO:LB:g=original	!	!	!	!LO:LB:g=original	!	!	!	!	!
=177||	=177||	=177||	=177||	=177||	=177||	=177||	=177||	=177||	=177||
*M3/4	*	*M3/4	*	*M3/4	*	*M3/4	*	*M3/4	*
!LO:TX:b:t=Esurienteſ	!	!	!	!	!	!	!	!	!
!LO:TX:a:t=Tutti	!	!LO:TX:a:t=Tutti	!	!LO:TX:a:t=Tutti	!	!	!	!LO:TX:a:t=Tutti	!
4F\	.	4F\	E-	4c\	E-	4f\	E-	4a\	E-
4A\	.	4A\	-su-	4c\	-su-	4f\	-su-	4a\	-su-
4c\	.	4c\	-ri-	4c\	-ri-	4e\	-ri-	4g\	-ri-
=178	=178	=178	=178	=178	=178	=178	=178	=178	=178
8F\L	.	8F\L	-en-	[2.c\	-en-	[2.f\	-en-	8a\L	-en-
8E\	.	8E\	.	.	.	.	.	8g\	.
8F\	.	8F\	.	.	.	.	.	8a\	.
8G\	.	8G\	.	.	.	.	.	8b-X\	.
8A\	.	8A\	.	.	.	.	.	8cc\	.
8G\J	.	8G\J	.	.	.	.	.	8b-\J	.
=179	=179	=179	=179	=179	=179	=179	=179	=179	=179
8F\L	.	8F\L	.	2.c\]	.	2.f\_	.	8a\L	.
8E\	.	8E\	.	.	.	.	.	8g\	.
8F\	.	8F\	.	.	.	.	.	8a\	.
8G\	.	8G\	.	.	.	.	.	8b-X\	.
8A\	.	8A\	.	.	.	.	.	8cc\	.
8G\J	.	8G\J	.	.	.	.	.	8b-\J	.
=180	=180	=180	=180	=180	=180	=180	=180	=180	=180
4F\	.	4F\	.	4c\	.	4f\]	.	4a\	.
4F\	.	4F\	-teſ	4c\	-tes	4f\	-teſ	4a\	-teſ
4C\	.	4C\	im-	4c\	im-	4e\	im-	4g\	im-
!	!	!	!	!	!	!	!	!LO:LB:g=original	!
=181	=181	=181	=181	=181	=181	=181	=181	=181	=181
2F\	.	2F\	-ple-	2c\	-ple-	2f\	-ple-	2a\	-ple-
4E\	.	[4E\	-vit	[4c\	-vit	[4g\	-vit	[4cc\	-vit
!LO:LB:g=original	!	!LO:LB:g=original	!	!	!	!	!	!	!
=182	=182	=182	=182	=182	=182	=182	=182	=182	=182
4F\	.	4E\]	.	4c\]	.	4g\]	.	4cc\]	.
2D\	7	2D\	bo-	4c\	bo-	2f\	bo-	2dd\	bo-
.	6	.	.	4B\	.	.	.	.	.
!	!	!	!	!LO:LB:g=original	!	!LO:LB:g=original	!	!	!
=183	=183	=183	=183	=183	=183	=183	=183	=183	=183
2C\	.	2C/	-niſ	2c\	-niſ	2e\	-niſ	2g\	-nis
4c\	.	4c\	et	4e\	et	4e\	et	4cc\	et
=184	=184	=184	=184	=184	=184	=184	=184	=184	=184
4.B\	.	4.B\	di-	4.d\	di-	4.g\	di-	4.g\	di-
8c\L	.	8c\	-vi-	8e\	-vi-	8g\	-vi-	8g\	-vi-
8B\	.	8B\	-teſ	8d\	-teſ	8g\	-teſ	8g\	-teſ
8A\J	#6	8A\	di-	8c\	di-	8f#X\	di-	8a\	di-
=185	=185	=185	=185	=185	=185	=185	=185	=185	=185
4G\	.	4G\	-mi-	4d\	-mi-	4g\	-mi-	4b\	-mi-
4B\	.	4B\	-sit	4d\	-sit	4g\	-sit	4b\	-sit
4c\	.	4c\	i-	[4c\	i-	[4e\	i-	[4g\	i-
!	!	!	!	!	!	!	!	!LO:LB:g=original	!
=186	=186	=186	=186	=186	=186	=186	=186	=186	=186
4C/	.	4C/	-na-	4c\]	.	4e\]	.	4g\]	.
2G\	.	2G\	.	4c\	-na-	2d\	-na-	2g\	-na-
.	.	.	.	4B\	.	.	.	.	.
!	!	!LO:PB:g=original	!	!	!	!	!	!	!
=187	=187	=187	=187	=187	=187	=187	=187	=187	=187
2C/	.	2C/	-neſ	2c\	-neſ	2e\	-neſ	2g\	-neſ
4G\	.	4G\	i-	4d\	i-	4g\	i-	4b\	i-
!	!	!	!	!	!	!LO:PB:g=original	!	!	!
=188	=188	=188	=188	=188	=188	=188	=188	=188	=188
8c\L	.	8c\L	-na-	8e\L	-na-	2.g\	-na-	2.b\	-na-
8B\	.	8B\	.	8d\	.	.	.	.	.
8c\	.	8c\	.	8e\	.	.	.	.	.
8d\	.	8d\	.	8f\	.	.	.	.	.
8e\	.	8e\	.	8g\	.	.	.	.	.
8d\J	.	8d\J	.	8f\J	.	.	.	.	.
!LO:LB:g=original	!	!	!	!LO:LB:g=original	!	!	!	!	!
=189	=189	=189	=189	=189	=189	=189	=189	=189	=189
8c\L	.	8c\L	.	8e\L	.	2.g\	.	[2.cc\	-neſ
8B\	.	8B\	.	8d\	.	.	.	.	.
8c\	.	8c\	.	8e\	.	.	.	.	.
8d\	.	8d\	.	8f\	.	.	.	.	.
8e\	.	8e\	.	8g\	.	.	.	.	.
8d\J	.	8d\J	.	8f\J	.	.	.	.	.
=190	=190	=190	=190	=190	=190	=190	=190	=190	=190
4c\	.	4c\	.	4e\	.	4g\	.	2cc\]	.
4c\	.	4c\	-neſ	4c\	-neſ	4g\	-neſ	.	.
4C/	.	4C/	i-	4c\	in-	4e\	i-	4g\	i-
=191	=191	=191	=191	=191	=191	=191	=191	=191	=191
8F\L	.	8F\L	-na-	[2.c\	-a-	[2.f\	-na-	8a\L	-na-
8E\	.	8E\	.	.	.	.	.	8g\	.
8F\	.	8F\	.	.	.	.	.	8a\	.
8G\	.	8G\	.	.	.	.	.	8b-X\	.
8A\	.	8A\	.	.	.	.	.	8cc\	.
8G\J	.	8G\J	.	.	.	.	.	8b-\J	.
!	!	!LO:LB:g=original	!	!	!	!	!	!LO:LB:g=original	!
=192	=192	=192	=192	=192	=192	=192	=192	=192	=192
8F\L	.	8F\L	.	2.c\]	.	2.f\_	.	8a\L	.
8E\	.	8E\	.	.	.	.	.	8g\	.
8F\	.	8F\	.	.	.	.	.	8a\	.
8G\	.	8G\	.	.	.	.	.	8b-X\	.
8A\	.	8A\	.	.	.	.	.	8cc\	.
8G\J	.	8G\J	.	.	.	.	.	8b-\J	.
=193	=193	=193	=193	=193	=193	=193	=193	=193	=193
4F\	.	4F\	.	4c\	.	4f\]	.	4a\	.
4F\	.	4F\	-neſ	4c\	-neſ	4f\	-neſ	4a\	-neſ
[>4BB-X/	.	[4BB-X/	i-	[4d\	i-	[4f\	i-	[4b-X\	i-
!LO:LB:g=original	!	!	!	!	!	!	!	!	!
=194	=194	=194	=194	=194	=194	=194	=194	=194	=194
4BB-/]	.	4BB-/]	.	4d\]	.	4f\]	.	4b-\]	.
2C/	.	2C/	-na-	2c\	-na-	4f\	-na-	2g\	-na-
.	.	.	.	.	.	4e\	.	.	.
!	!	!	!	!	!	!LO:LB:g=original	!	!	!
=195	=195	=195	=195	=195	=195	=195	=195	=195	=195
2FF/	.	2FF/	-neſ	2c\	-neſ	2f\	-neſ	2a\	-neſ
4F\	.	4F\	et	4r	.	4f\	et	4a\	et
!	!	!	!	!LO:LB:g=original	!	!	!	!	!
=196	=196	=196	=196	=196	=196	=196	=196	=196	=196
4.E\	.	4.E/	di-	4r	.	4.c/	di-	4.g\	di-
.	.	.	.	4r	.	.	.	.	.
8D\L	.	8D/	-vi-	.	.	8c\	-vi-	8g\	-vi-
8E\	.	8E/	-teſ	4c\	i-	8g\	-tes	8cc\	-teſ
8C\J	.	8C/	di-	.	.	8e\	di-	8b-X\	di-
!	!	!LO:LB:g=original	!	!	!	!	!	!LO:PB:g=original	!
=197	=197	=197	=197	=197	=197	=197	=197	=197	=197
4F\	.	4F\	-mi-	4c\	-na-	4f\	-mi-	4a\	-mi-
4F\	.	4F\	-sit	4c\	-neſ	4f\	-sit	4a\	-sit
[4D\	.	[4D/	i-	4Bn\	i-	[4f\	i-	[4f/	i-
=198	=198	=198	=198	=198	=198	=198	=198	=198	=198
4D\]	.	4D/]	.	4B\	.	4f\]	.	4f/]	.
2C\	43	2C/	-na-	2c\	-na-	4f\	-na-	2g\	-na-
.	.	.	.	.	.	4e\	.	.	.
=199	=199	=199	=199	=199	=199	=199	=199	=199	=199
2FF/	.	2FF/	-neſ	2c\	-neſ	2f\	-nes	2a\	-neſ.
4r	.	4r	.	4r	.	4r	.	4r	.
!LO:LB:g=original	!	!LO:LB:g=original	!	!LO:PB:g=original	!	!LO:LB:g=original	!	!LO:LB:g=original	!
=200||	=200||	=200||	=200||	=200||	=200||	=200||	=200||	=200||	=200||
*M4/4	*	*M4/4	*	*M4/4	*	*M4/4	*	*M4/4	*
*met(c)	*	*met(c)	*	*met(c)	*	*met(c)	*	*met(c)	*
!LO:TX:b:i:t=Suscepit Israel	!	!	!	!	!	!	!	!	!
!LO:TX:a:i:t=Basso Solo	!	!LO:TX:a:i:t=Solo	!	!LO:TX:t=Suscepit Tacet	!	!LO:TX:i:t=Suscepit Tacet	!	!LO:TX:a:t=Suscepit Tacet	!
4C/	.	4r	.	1ryy	.	1ryy	.	1ryy	.
8r	.	8r	.	.	.	.	.	.	.
8c\	.	8c\	Sus-	.	.	.	.	.	.
8B\L	.	8B\	-ce-	.	.	.	.	.	.
8G\J	.	8G\	-pit	.	.	.	.	.	.
8r	.	8r	.	.	.	.	.	.	.
8G\	.	8G\	sus-	.	.	.	.	.	.
=201	=201	=201	=201	=201	=201	=201	=201	=201	=201
!LO:TX:t=P:problem=mixed beam	!	!	!	!	!	!	!	!	!
8c\L	.	8c\	-ce-	1ryy	.	1ryy	.	1ryy	.
8F\	.	8F\	-pit	.	.	.	.	.	.
8G\	.	8.G\	Is-	.	.	.	.	.	.
8GG/J	.	.	.	.	.	.	.	.	.
!	!	!LO:SIC:v:l:s=-ra-	!	!	!	!	!	!	!
.	.	16G\	-dra-	.	.	.	.	.	.
4C/	.	4C/	-el	.	.	.	.	.	.
[4c\	.	[4c\	pu-	.	.	.	.	.	.
=202	=202	=202	=202	=202	=202	=202	=202	=202	=202
4c\]	X 4	4c\]	.	1ryy	.	1ryy	.	1ryy	.
.	2 4	.	.	.	.	.	.	.	.
4B\	6	8B\	-e-	.	.	.	.	.	.
.	7	8B\	-rum	.	.	.	.	.	.
2A\	#6	2A\	su-	.	.	.	.	.	.
!	!	!LO:LB:g=original	!	!	!	!	!	!	!
=203	=203	=203	=203	=203	=203	=203	=203	=203	=203
4.G\	.	4G\	-um	1ryy	.	1ryy	.	1ryy	.
.	.	8A\	re-	.	.	.	.	.	.
8D\	#	8A\	-cor-	.	.	.	.	.	.
!LO:LB:g=original	!	!	!	!	!	!	!	!	!
=-	=-	=-	=-	=-	=-	=-	=-	=-	=-
4.G\	.	16B\LL	-da-	.	.	.	.	.	.
.	.	16c\	.	.	.	.	.	.	.
.	.	16d\	.	.	.	.	.	.	.
.	.	16c\JJ	.	.	.	.	.	.	.
.	.	16B\LL	.	.	.	.	.	.	.
.	.	16A\	.	.	.	.	.	.	.
8F#X\	.	16G\	.	.	.	.	.	.	.
.	.	16F#X\JJ	.	.	.	.	.	.	.
=204	=204	=204	=204	=204	=204	=204	=204	=204	=204
4.E\	.	16G\LL	.	1ryy	.	1ryy	.	1ryy	.
.	.	16A\	.	.	.	.	.	.	.
.	.	16B\	.	.	.	.	.	.	.
.	.	16A\JJ	.	.	.	.	.	.	.
.	.	16G\LL	.	.	.	.	.	.	.
.	.	16F#X\	.	.	.	.	.	.	.
8D\	.	16E\	.	.	.	.	.	.	.
.	.	16D\JJ	.	.	.	.	.	.	.
4.C/	.	16E\LL	.	.	.	.	.	.	.
.	.	16F#\	.	.	.	.	.	.	.
.	.	16G\	.	.	.	.	.	.	.
.	.	16F#\JJ	.	.	.	.	.	.	.
.	.	16E/LL	.	.	.	.	.	.	.
.	.	16D/	.	.	.	.	.	.	.
8BB/	.	16C/	.	.	.	.	.	.	.
.	.	16BB/JJ	.	.	.	.	.	.	.
=205	=205	=205	=205	=205	=205	=205	=205	=205	=205
4C/	.	8C/	.	1ryy	.	1ryy	.	1ryy	.
.	.	8C/	-tuſ	.	.	.	.	.	.
4G\	.	8r	.	.	.	.	.	.	.
.	.	8G\	mi-	.	.	.	.	.	.
4A\	5	4A\	-se-	.	.	.	.	.	.
4B\	.	4B\	-ri-	.	.	.	.	.	.
=206	=206	=206	=206	=206	=206	=206	=206	=206	=206
4c\	.	4c\	-cor-	1ryy	.	1ryy	.	1ryy	.
8G\L	.	8G\	-di-	.	.	.	.	.	.
!	!	!LO:SIC:v:l:s=-ae	!	!	!	!	!	!	!
8A\J	.	8A\	-ę	.	.	.	.	.	.
!	!	!LO:LB:g=original	!	!	!	!	!	!	!
=-	=-	=-	=-	=-	=-	=-	=-	=-	=-
4B\	4	2B\	su-	.	.	.	.	.	.
4BB/	.	.	.	.	.	.	.	.	.
=207	=207	=207	=207	=207	=207	=207	=207	=207	=207
!	!	!LO:SIC:v:l:s=-ae	!	!	!	!	!	!	!
8E\L	.	4E\	-ę	1ryy	.	1ryy	.	1ryy	.
8B\	.	.	.	.	.	.	.	.	.
8G\	.	8r	.	.	.	.	.	.	.
8E\J	.	8e\	sus-	.	.	.	.	.	.
!LO:PB:g=original	!	!	!	!	!	!	!	!	!
=-	=-	=-	=-	=-	=-	=-	=-	=-	=-
8r	.	8c\	-ce-	.	.	.	.	.	.
8A\L	.	8A\	-pit	.	.	.	.	.	.
8F#X\	.	8r	.	.	.	.	.	.	.
8D\J	.	8d\	sus-	.	.	.	.	.	.
=208	=208	=208	=208	=208	=208	=208	=208	=208	=208
8r	.	8B\	-ce-	1ryy	.	1ryy	.	1ryy	.
8G\L	.	8G\	-pit	.	.	.	.	.	.
8B\	.	8r	.	.	.	.	.	.	.
8G\J	.	8G\	sus-	.	.	.	.	.	.
!LO:TX:t=P:problem=mixed beam	!	!	!	!	!	!	!	!	!
8c\L	.	8c\	-ce-	.	.	.	.	.	.
8F\	.	8F\	-pit	.	.	.	.	.	.
8G\	.	8.G\	Is-	.	.	.	.	.	.
8GG/J	.	.	.	.	.	.	.	.	.
!	!	!LO:SIC:v:l:s=-ra-	!	!	!	!	!	!	!
.	.	16G\	-dra-	.	.	.	.	.	.
=209	=209	=209	=209	=209	=209	=209	=209	=209	=209
4C/	.	4C/	-el	1ryy	.	1ryy	.	1ryy	.
2F\	5 3	2F\	pu-	.	.	.	.	.	.
.	4 2	.	.	.	.	.	.	.	.
4E\	6	8E\	-e-	.	.	.	.	.	.
.	.	8E\	-rum	.	.	.	.	.	.
=210	=210	=210	=210	=210	=210	=210	=210	=210	=210
2D\	.	2D/	su-	1ryy	.	1ryy	.	1ryy	.
4C/	.	4C/	-u(m)	.	.	.	.	.	.
4E/	.	8c\	re-	.	.	.	.	.	.
.	.	8B\	-cor-	.	.	.	.	.	.
!	!	!LO:LB:g=original	!	!	!	!	!	!	!
=211	=211	=211	=211	=211	=211	=211	=211	=211	=211
4.F\	.	16A\LL	-da-	1ryy	.	1ryy	.	1ryy	.
.	.	16B\	.	.	.	.	.	.	.
.	.	16c\	.	.	.	.	.	.	.
.	.	16B\JJ	.	.	.	.	.	.	.
.	.	16A\LL	.	.	.	.	.	.	.
.	.	16G\	.	.	.	.	.	.	.
8E\	.	16F\	.	.	.	.	.	.	.
.	.	16E\JJ	.	.	.	.	.	.	.
!LO:LB:g=original	!	!	!	!	!	!	!	!	!
=-	=-	=-	=-	=-	=-	=-	=-	=-	=-
4.D/	.	16F\LL	.	.	.	.	.	.	.
.	.	16G\	.	.	.	.	.	.	.
.	.	16A\	.	.	.	.	.	.	.
.	.	16G\JJ	.	.	.	.	.	.	.
.	.	16F\LL	.	.	.	.	.	.	.
.	.	16E\	.	.	.	.	.	.	.
8C#X/	.	16D\	.	.	.	.	.	.	.
.	.	16C#X\JJ	.	.	.	.	.	.	.
=212	=212	=212	=212	=212	=212	=212	=212	=212	=212
4D\	.	8D/	.	1ryy	.	1ryy	.	1ryy	.
.	.	8D/	-tuſ	.	.	.	.	.	.
4F#X\	56	8d\	re-	.	.	.	.	.	.
.	.	8c\	-cor-	.	.	.	.	.	.
4.G\	.	16B\LL	-da-	.	.	.	.	.	.
.	.	16c\	.	.	.	.	.	.	.
.	.	16d\	.	.	.	.	.	.	.
.	.	16c\JJ	.	.	.	.	.	.	.
.	.	16B\LL	.	.	.	.	.	.	.
.	.	16A\	.	.	.	.	.	.	.
8Fn\	.	16G\	.	.	.	.	.	.	.
.	.	16F\JJ	.	.	.	.	.	.	.
=213	=213	=213-	=213	=213	=213	=213	=213	=213	=213
4.E\	.	16G\LL	.	1ryy	.	1ryy	.	1ryy	.
.	.	16A\	.	.	.	.	.	.	.
.	.	16B\	.	.	.	.	.	.	.
.	.	16A\JJ	.	.	.	.	.	.	.
.	.	16G\LL	.	.	.	.	.	.	.
.	.	16F\	.	.	.	.	.	.	.
8D\	.	16E\	.	.	.	.	.	.	.
.	.	16D\JJ	.	.	.	.	.	.	.
4C/	.	8E\	.	.	.	.	.	.	.
.	.	8E\	-tus	.	.	.	.	.	.
4G#X\	.	8r	.	.	.	.	.	.	.
.	.	8e\	mi-	.	.	.	.	.	.
!	!	!LO:PB:g=original	!	!	!	!	!	!	!
=214	=214	=214	=214	=214	=214	=214	=214	=214	=214
4.A\	.	8c\	-se-	1ryy	.	1ryy	.	1ryy	.
.	.	8B\	-ri-	.	.	.	.	.	.
.	.	[4A\	-cor-	.	.	.	.	.	.
8G\	.	.	.	.	.	.	.	.	.
4.F\	.	16A\LL]	.	.	.	.	.	.	.
.	.	16B\	.	.	.	.	.	.	.
.	.	16G\	.	.	.	.	.	.	.
.	.	16A\JJ	.	.	.	.	.	.	.
.	.	16F\LL	.	.	.	.	.	.	.
.	.	16G\	.	.	.	.	.	.	.
8E\	.	16E\	.	.	.	.	.	.	.
.	.	16F\JJ	.	.	.	.	.	.	.
=215	=215	=215-	=215	=215	=215	=215	=215	=215	=215
4D/	.	4D/	.	1ryy	.	1ryy	.	1ryy	.
4C/	.	8C/	-di-	.	.	.	.	.	.
!	!	!LO:SIC:v:l:s=-ae	!	!	!	!	!	!	!
.	.	8C/	-ę	.	.	.	.	.	.
!LO:LB:g=original	!	!	!	!	!	!	!	!	!
=-	=-	=-	=-	=-	=-	=-	=-	=-	=-
!LO:TX:t=P:problem=mixed beam	!	!	!	!	!	!	!	!	!
8G\L	.	2G\	su-	.	.	.	.	.	.
8F\	.	.	.	.	.	.	.	.	.
8G\	.	.	.	.	.	.	.	.	.
8GG/J	.	.	.	.	.	.	.	.	.
=216	=216	=216	=216	=216	=216	=216	=216	=216	=216
!	!	!LO:SIC:v:l:s=-ae	!	!	!	!	!	!	!
8C/L	.	8C/	-ę	1ryy	.	1ryy	.	1ryy	.
8E/	.	8c\	mi-	.	.	.	.	.	.
8D/	.	8B\	-se-	.	.	.	.	.	.
8C/J	.	8c\	-ri-	.	.	.	.	.	.
4F\	5	4F\	-cor-	.	.	.	.	.	.
4F#X\	5 -7	8F#X\	-di-	.	.	.	.	.	.
!	!	!LO:SIC:v:l:s=-ae	!	!	!	!	!	!	!
.	.	8F#\	-ę	.	.	.	.	.	.
!	!	!LO:LB:g=original	!	!	!	!	!	!	!
=217	=217	=217	=217	=217	=217	=217	=217	=217	=217
4G\	.	2G\	su-	1ryy	.	1ryy	.	1ryy	.
4GG/	.	.	.	.	.	.	.	.	.
!	!	!LO:SIC:v:l:s=-ae	!	!	!	!	!	!	!
4C/	.	4C/	-ę	.	.	.	.	.	.
4r	.	4r	.	.	.	.	.	.	.
!LO:LB:g=original	!	!	!	!	!	!	!	!	!
=218||	=218||	=218||	=218||	=218||	=218||	=218||	=218||	=218||	=218||
*M3/4	*	*M3/4	*	*M3/4	*	*M3/4	*	*M3/4	*
!LO:TX:a:t=Siegue Tutti	!	!	!	!	!	!	!	!	!
!LO:TX:b:i:t=Sicut Locutus	!	!LO:TX:t=Tutti	!	!	!	!	!	!	!
2c\	.	2c\	Si-	2e\	Si-	2g\	Si-	2cc\	ſi-
4G\	.	4G\	-cut	4d\	-cut	4g\	-cut	4b\	-cut
=219	=219	=219	=219	=219	=219	=219	=219	=219	=219
4c\	.	4c\	lo-	4e\	lo-	4g\	lo-	4cc\	lo-
4B\	6	4B\	-cu-	4d\	-cu-	4g\	-cu-	4g\	-cu-
4A\	#6	4A\	-tuſ	4c\	-tuſ	4f#X\	-tuſ	4a\	-tuſ
=220	=220	=220	=220	=220	=220	=220	=220	=220	=220
2G\	.	2G\	est	2d\	est	2g\	est	2b\	est
4G\	6	4G\	ad	4e\	ad	4e\	ad	4b\	ad
=221	=221	=221	=221	=221	=221	=221	=221	=221	=221
2A\	5	2A\	pat-	2e\	Pat-	2a\	Pat-	2cc\	Pat-
!	!	!	!	!	!	!	!	!LO:SIC:v:l:s=-res	!
[4B\	#	[4B\	-reſ	[4d#X\	-reſ	[4f#X\	-res	[4b\	-re
!	!	!LO:LB:g=original	!	!	!	!	!	!	!
=222	=222	=222	=222	=222	=222	=222	=222	=222	=222
4B\]	.	4B\]	.	4d#\]	.	4f#\]	.	4b\]	.
2c\	6	2c\	nos-	2e\	nos-	2e\	nos-	4b\	no-
.	.	.	.	.	.	.	.	4a\	.
!LO:LB:g=original	!	!	!	!	!	!	!	!LO:LB:g=original	!
=223	=223	=223	=223	=223	=223	=223	=223	=223	=223
2B\	.	2B\	-troſ	2d#X\	-troſ	2f#X\	-troſ	2b\	-stroſ
4r	.	4r	.	4r	.	4r	.	4r	.
!	!	!	!	!LO:LB:g=original	!	!LO:LB:g=original	!	!	!
=224	=224	=224	=224	=224	=224	=224	=224	=224	=224
4.E\	n	4.E\	Ab-	4.e\	Ab-	4.g\	Ab-	4.b\	Ab-
8E\	.	8E\	-ra-	8e\	-ra-	8g\	-ra-	8b\	-ra-
4E\	.	4E\	-ham	4e\	-ham	4g\	-ham	4b\	-ham
=225	=225	=225	=225	=225	=225	=225	=225	=225	=225
4r	.	4r	.	4r	.	4r	.	4r	.
4r	.	4r	.	4r	.	4r	.	4r	.
4E\	.	4E\	et	4e\	et	4g#X\	et	4b\	et
=226	=226	=226	=226	=226	=226	=226	=226	=226	=226
4.A\	n	4.A\	se-	4.e\	se-	4.a\	se-	4.cc\	se-
8A\	.	8A\	-mi-	8e\	-mi-	8e\	-mi-	8cc\	-mi-
4G\	.	4G\	-ni	4e\	-ni	4e\	-ni	4cc\	-ni
=227	=227	=227	=227	=227	=227	=227	=227	=227	=227
4F#X\	6 4	4F#X\	e-	4d\	e-	4a\	e-	4cc\	e-
4F#\	.	4F#\	-iuſ	4d\	-iuſ	4a\	-ius	4cc\	-iuſ
[4G\	.	[4G\	in	[4d\	in	[4g\	in	[4b\	in
!LO:LB:g=original	!	!	!	!	!	!	!	!LO:LB:g=original	!
=228	=228	=228	=228	=228	=228	=228	=228	=228	=228
4G\]	.	4G\]	.	4d\]	.	4g\]	.	4b\]	.
!	!	!LO:SIC:v:l:s=sae-	!	!LO:SIC:v:l:s=sae-	!	!LO:SIC:v:l:s=sae-	!	!LO:SIC:v:l:s=sae	!
2D\	#	4.D\	se-	4.d\	sę-	4.f#X\	sę-	4.a\	se-
.	.	8D\	-cu-	8d\	-cu-	8g\	-cu[[la]]-	8a\	-cu-
!	!	!LO:LB:g=original	!	!	!	!LO:LB:g=original	!	!	!
=229	=229	=229	=229	=229	=229	=229	=229	=229	=229
2GG/	.	2GG/	-la	2d\	-la	2g\	-la	2b\	-la
4D\	#	4D/	et	4d\	et	4r	.	4r	.
!	!	!	!	!LO:LB:g=original	!	!	!	!	!
=230	=230	=230	=230	=230	=230	=230	=230	=230	=230
4G\	.	4G\	se-	4B\	se-	4r	.	4r	.
4B\	#	4B\	-mi-	4d\	-mi-	4r	.	4r	.
4A\	#6	4A\	-ni	4c\	-ni	4d\	et	4a\	et
=231	=231	=231	=231	=231	=231	=231	=231	=231	=231
*	*	*	*	*	*	*	*	*^	*
2G\	.	2G\	e-	2B\	e-	4g\	se-	4b\	4ryy	se-
.	.	.	.	.	.	4b\	-mi-	4.dd/	4.a\	-mi-
4D\	.	4D\	-iuſ	4d\	-iuſ	4a\	-ni	.	.	.
!	!	!	!	!	!	!	!	!LO:N:vis=8.	!	!
.	.	.	.	.	.	.	.	8b\	8ryy	-ni
*	*	*	*	*	*	*	*	*v	*v	*
=232	=232	=232	=232	=232	=232	=232	=232	=232	=232
4G\	.	4G\	se-	4B\	se-	2g\	e-	2b\	e-
4B\	.	4B\	-mi-	4d\	-mi-	.	.	.	.
4A\	.	4A\	-ni	4c\	-ni	4d\	-iuſ	4dd\	-iuſ
!LO:PB:g=original	!	!	!	!	!	!	!	!LO:LB:g=original	!
=233	=233	=233	=233	=233	=233	=233	=233	=233	=233
2G\	.	2G\	e-	2B\	e-	4r	.	4r	.
.	.	.	.	.	.	4r	.	4r	.
4D\	.	4D\	-iuſ	4d\	-iuſ	4f#X\	in	4a\	in
=234	=234	=234	=234	=234	=234	=234	=234	=234	=234
!	!	!	!	!	!	!LO:SIC:v:l:s=sae-	!	!LO:SIC:v:l:s=sae-	!
4G\	.	4G\	in	4B\	in	2g\	sę-	4b\	se-
!	!	!LO:SIC:v:l:s=sae-	!	!LO:SIC:v:l:s=sae-	!	!	!	!	!
2G\	.	4.D\	ce-	4.d\	sę-	.	.	4.a\	.
.	.	.	.	.	.	4f#X\	-cu-	.	.
.	.	8D\	-cu-	8d\	-cu-	.	.	8b\	-cu-
!	!	!	!	!	!	!LO:LB:g=original	!	!	!
=235	=235	=235	=235	=235	=235	=235	=235	=235	=235
2GG/	.	2GG/	-la	2d\	-la	2g\	-la	2b\	-la
4G\	.	4G\	et	4d\	et	4r	.	4r	.
=236	=236	=236	=236	=236	=236	=236	=236	=236	=236
4c\	.	4c\	se-	4e\	se-	4r	.	4r	.
4e\	.	4e\	-mi-	4g\	-mi-	4r	.	4r	.
4d\	.	4d\	-ni	4f\	-ni	4d\	et	4g\	et
!	!	!LO:LB:g=original	!	!LO:LB:g=original	!	!	!	!	!
=237	=237	=237	=237	=237	=237	=237	=237	=237	=237
!	!	!	!	!	!	!	!	!LO:SIC:v:l:s=sae-	!
2c\	.	2c\	e-	2e\	e-	4e\	se-	4cc\	se-
.	.	.	.	.	.	4g\	-mi-	4ee\	-mi-
4G\	.	4G\	-iuſ	4g\	-iuſ	4f\	-ni	4cc\	-ni
=238	=238	=238	=238	=238	=238	=238	=238	=238	=238
4c\	.	4c\	se-	4e\	se-	2e\	e-	2cc\	e-
4e\	.	4e\	-mi-	4g\	-mi-	.	.	.	.
4d\	.	4d\	-ni	4f\	-ni	4g\	-iuſ	4b\	-iuſ
!LO:LB:g=original	!	!	!	!	!	!	!	!LO:PB:g=original	!
=239	=239	=239	=239	=239	=239	=239	=239	=239	=239
2c\	.	2c\	e-	2e\	e-	4r	.	4r	.
.	.	.	.	.	.	4r	.	4r	.
4G\	.	4G\	-iuſ	4g\	-iuſ	4g\	in	4b\	in
=240	=240	=240	=240	=240	=240	=240	=240	=240	=240
!	!	!	!	!	!	!	!	!LO:SIC:v:l:s=sae-	!
4c\	.	4c\	in	4e\	in	2g\	sę-	2cc\	sę-
!	!	!LO:SIC:v:l:s=sae-	!	!LO:SIC:v:l:s=sae-	!	!	!	!	!
2G\	.	4.G\	se-	4.d\	se-	.	.	.	.
.	.	.	.	.	.	4g\	-cu-	4b\	-cu-
.	.	8G\	-cu-	8d\	-cu-	.	.	.	.
!	!	!	!	!	!	!LO:PB:g=original	!	!	!
=241	=241	=241	=241	=241	=241	=241	=241	=241	=241
2C/	.	2C/	-la	2e\	-la	2g\	-la	2cc\	-la
*clefC1	*	*	*	*	*	*	*	*	*
4cc\	#	4r	.	4r	.	4r	.	4b\	in
=242	=242	=242	=242	=242	=242	=242	=242	=242	=242
!	!	!LO:TX:b:t=2	!	!LO:TX:b:t=1	!	!	!	!LO:SIC:v:l:s=sae-	!
!	!	!LO:N:vis=0r	!	!	!	!	!	!	!
2b\	.	1.r	.	2.r	.	4r	.	4.b\	sę-
.	.	.	.	.	.	4r	.	.	.
.	.	.	.	.	.	.	.	8a\L	.
*clefC3	*	*	*	*	*	*	*	*	*
4g\	.	.	.	.	.	4g\	in	8b\	.
.	.	.	.	.	.	.	.	8g\J	.
=243	=243	=243	=243	=243	=243	=243	=243	=243	=243
!	!	!	!	!	!	!LO:SIC:v:l:s=sae-	!	!	!
2e\	.	.	.	4r	.	4.e\	se-	4.cc\	.
.	.	.	.	4r	.	.	.	.	.
.	.	.	.	.	.	8d\L	.	8dd\L	.
*clefC4	*	*	*	*	*	*	*	*	*
4c\	.	.	.	4c\	in	8e\	.	8ee\	.
.	.	.	.	.	.	8c\J	.	8ff\J	.
!LO:LB:g=original	!	!	!	!LO:LB:g=original	!	!	!	!LO:LB:g=original	!
=244	=244	=244	=244	=244	=244	=244	=244	=244-	=244
!	!	!	!	!LO:SIC:v:l:s=sae-	!	!	!	!	!
2B\	.	4r	.	4.B\	se-	4.g\	.	4gg\	.
.	.	4r	.	.	.	.	.	2g\	-cu-
.	.	.	.	8A\L	.	8a\L	.	.	.
*clefF4	*	*	*	*	*	*	*	*	*
4G\	.	4G\	in	8B\	.	8b\	.	.	.
.	.	.	.	8G\J	.	8g\J	.	.	.
=245	=245	=245	=245	=245	=245	=245	=245	=245	=245
!	!	!LO:SIC:v:l:s=sae-	!	!	!	!	!	!	!
4.E\	.	4.E\	se-	4.c\	.	4cc\	.	2g\	-la
.	.	.	.	.	.	2d\	.	.	.
8D\L	.	8D\L	.	8B\L	.	.	.	.	.
8E\	.	8E\	.	8c\	.	.	.	4r	.
8C\J	.	8C\J	.	8A\J	.	.	.	.	.
!	!	!LO:LB:g=original	!	!	!	!	!	!	!
=246	=246	=246	=246	=246	=246	=246	=246	=246	=246
!	!	!	!	!	!	!	!	!LO:TX:b:t=1	!
4G\	.	4G\	.	4B\	.	4d\	.	2.r	.
2A\	#6	2A\	.	[2c\	.	2d\	.	.	.
!	!	!	!	!	!	!LO:LB:g=original	!	!	!
=247	=247	=247	=247	=247	=247	=247	=247	=247	=247
2G\	.	2G\	.	4c\]	.	2d\	.	4r	.
.	.	.	.	4c\	.	.	.	4r	.
4G\	.	4G\	-cu-	4B\	-cu-	4d\	-cu-	4gg\	in
=248	=248	=248	=248	=248	=248	=248	=248	=248	=248
!	!	!	!	!	!	!	!	!LO:SIC:v:l:s=sae-	!
2C/	.	2C/	-la	2c\	-la	2e\	-la	4.ee\	se-
.	.	.	.	.	.	.	.	8dd\L	.
4c\	.	4c\	in	4r	.	4r	.	8ee\	.
.	.	.	.	.	.	.	.	8cc\J	.
=249	=249	=249	=249	=249	=249	=249	=249	=249	=249
!	!	!LO:SIC:v:l:s=sae-	!	!LO:TX:b:t=1	!	!	!	!	!
4.B\	.	4.B\	se-	2.r	.	4r	.	4gg\	.
.	.	.	.	.	.	4r	.	2g\	-cu-
8A\L	.	8A\L	.	.	.	.	.	.	.
8B\	.	8B\	.	.	.	4g\	in	.	.
8G\J	.	8G\J	.	.	.	.	.	.	.
!LO:LB:g=original	!	!	!	!	!	!	!	!LO:LB:g=original	!
=250	=250	=250	=250	=250	=250	=250	=250	=250	=250
!	!	!	!	!	!	!LO:SIC:v:l:s=sae-	!	!	!
4c\	.	4c\	.	4r	.	4.e\	se-	2g\	-la
4B\	.	4B\	.	4r	.	.	.	.	.
.	.	.	.	.	.	8d\L	.	.	.
4A\	#6	4A\	.	4c\	in	8e\	.	4r	.
.	.	.	.	.	.	8c\J	.	.	.
!	!	!	!	!LO:LB:g=original	!	!	!	!	!
=251	=251	=251	=251	=251	=251	=251	=251	=251	=251
!	!	!	!	!LO:SIC:v:l:s=sae-	!	!	!	!	!
[2.G\	.	[2.G\	.	4.B\	se-	2g\	.	4r	.
.	.	.	.	.	.	.	.	4r	.
.	.	.	.	8A\L	.	.	.	.	.
.	.	.	.	8B\	.	4g\	-cu-	4gg\	in
.	.	.	.	8G\J	.	.	.	.	.
=252	=252	=252	=252	=252	=252	=252	=252	=252	=252
!	!	!	!	!	!	!	!	!LO:SIC:v:l:s=sae-	!
2.G\]	.	2.G\_	.	4c\	.	2g\	-la	4.ee\	se-
.	.	.	.	4B\	.	.	.	.	.
.	.	.	.	.	.	.	.	8dd\L	.
.	.	.	.	4A\	-cu-	4cc\	in	8ee\	.
.	.	.	.	.	.	.	.	8cc\J	.
!	!	!	!	!	!	!LO:LB:g=original	!	!	!
=253	=253	=253	=253	=253	=253	=253	=253	=253	=253
!	!	!	!	!	!	!LO:SIC:v:l:s=sae-	!	!	!
2G\	35	2G\]	.	2G/	-la	4.b\	sę-	4gg\	.
.	.	.	.	.	.	.	.	2g\	-cu-
.	.	.	.	.	.	8a\L	.	.	.
4G\	.	4G\	-cu-	4g\	in	8b\	.	.	.
.	.	.	.	.	.	8g\J	.	.	.
!	!	!LO:LB:g=original	!	!	!	!	!	!	!
=254	=254	=254	=254	=254	=254	=254	=254	=254	=254
!	!	!	!	!LO:SIC:v:l:s=sae	!	!	!	!	!
2C/	.	2C/	-la	4.e\	se-	4cc\	.	2g\	-la
.	.	.	.	.	.	2c\	.	.	.
.	.	.	.	8d\L	.	.	.	.	.
4c\	.	4c\	in	8e\	.	.	.	4ee\	in
.	.	.	.	8c\J	.	.	.	.	.
=255	=255	=255	=255	=255	=255	=255	=255	=255	=255
!	!	!LO:SIC:v:l:s=sae-	!	!	!	!	!	!LO:SIC:v:l:s=sae-	!
4.B\	.	4.B\	se-	4g\	.	4d\	.	4.dd\	se-
.	.	.	.	2d\	.	4g\	.	.	.
8A\L	.	8A\L	.	.	.	.	.	8cc\L	.
8B\	.	8B\	.	.	.	4f\	.	8dd\	.
8G\J	.	8G\J	.	.	.	.	.	8b\J	.
!LO:LB:g=original	!	!	!	!	!	!	!	!LO:LB:g=original	!
=256	=256	=256	=256	=256	=256	=256	=256	=256	=256
4c\	.	4c\	.	4.e\	.	4.e\	.	[2.cc\	.
2C/	.	2C/	.	.	.	.	.	.	.
.	.	.	.	8d\	.	8f\	.	.	.
.	.	.	.	4c\	.	4g\	.	.	.
!	!	!	!	!LO:LB:g=original	!	!	!	!	!
=257	=257	=257	=257	=257	=257	=257	=257	=257	=257
2G\	.	2G\	.	2d\	-cu-	4g\	.	4cc\]	.
.	.	.	.	.	.	4d\	.	4.b\	.
4G\	.	4G\	-cu-	4d\	.	4g\	-cu-	.	.
.	.	.	.	.	.	.	.	8cc\	-cu-
!	!	!	!	!	!	!LO:LB:g=original	!	!	!
=258	=258	=258	=258	=258	=258	=258	=258	=258	=258
!LO:TX:b:t=Siegue à 4.o Soli	!	!	!	!LO:TX:t=Siegue à 4.o Soli	!	!	!	!	!
2.C/	.	2C/	-la	2.c;\	-la	2e\	-la	2cc;\	-la
.	.	4r	.	.	.	4r	.	4r	.
!LO:PB:g=original	!	!LO:PB:g=original	!	!LO:PB:g=original	!	!LO:LB:g=original	!	!LO:PB:g=original	!
=259||	=259||	=259||	=259||	=259||	=259||	=259||	=259||	=259||	=259||
*M4/4	*	*M4/4	*	*M4/4	*	*M4/4	*	*M4/4	*
*met(c)	*	*met(c)	*	*met(c)	*	*met(c)	*	*met(c)	*
!LO:TX:b:t=Gloria Patri	!	!LO:TX:i:t=Soli	!	!LO:TX:b:t=2.	!	!LO:TX:b:t=2	!	!LO:TX:i:t=Soli	!
4AA/	.	4r	.	0r	.	0r	.	4r	.
2A\	.	2A\	Glo-	.	.	.	.	8.a\	Glo-
.	.	.	.	.	.	.	.	16a\	-ri-
.	.	.	.	.	.	.	.	2a\	-a
4G#X\	.	8G#X\	-ri-	.	.	.	.	.	.
.	.	8G#\	-a	.	.	.	.	.	.
=260	=260	=260	=260	=260	=260	=260	=260	=260	=260
4A\	.	4A\	Pat-	.	.	.	.	4cc\	Pat-
4E\	#	8E\	-ri	.	.	.	.	8ee\	-ri
.	.	8E\	et	.	.	.	.	8ee\	et
2F\	76	4.F\	Fi-	.	.	.	.	4ee\	Fi-
.	.	.	.	.	.	.	.	4dd\	-li-
.	.	8F\	-li-	.	.	.	.	.	.
=261	=261	=261	=261	=261	=261	=261	=261	=261	=261
4E\	#	4E\	-o	4r	.	2r	.	4ee\	-o
4C/	6	4r	.	2e\	Et	.	.	4r	.
4D/	9	2r	.	.	.	4.f\	et	2r	.
4GG/	7	.	.	4d\	spi-	.	.	.	.
.	.	.	.	.	.	8f\	spi-	.	.
!LO:LB:g=original	!	!	!	!	!	!	!	!	!
=262	=262	=262	=262	=262	=262	=262	=262	=262	=262
!	!	!LO:TX:b:t=1	!	!	!	!	!	!LO:TX:b:t=1	!
4C/	9	1r	.	4d\	-ri-	4e\	-ri-	1r	.
4F\	5	.	.	8c\	-tu-	8f\	-tu-	.	.
.	.	.	.	8c\	-i	8e\	-i	.	.
4G\	4	.	.	4c\	San-	2d\	san-	.	.
4GG/	3	.	.	4B\	.	.	.	.	.
!	!	!	!	!	!	!	!	!LO:LB:g=original	!
=263	=263	=263	=263	=263	=263	=263	=263	=263	=263
4C/	.	4r	.	4c\	-cto	4c\	-cto	4r	.
2c\	.	2c\	Glo-	2e\	Glo-	2g\	Glo-	2cc\	Glo-
4C/	.	8c\	-ri-	8e\	-ri-	8g\	-ri-	8cc\	-ri-
.	.	8c\	-a	8e\	-a	8g\	-a	8cc\	-a
!	!	!LO:LB:g=original	!	!	!	!LO:LB:g=original	!	!	!
=264	=264	=264	=264	=264	=264	=264	=264	=264	=264
!LO:TX:a:i:t=tutti	!	!	!	!	!	!	!	!	!
4G\	.	4G\	Pat-	4d\	Pat-	4g\	Pat-	4b\	Pat-
4A\	.	8A\	-ri	8c\	-ri	8e\	-ri	8a\	-ri
.	4	8A\	et	8c\	et	8e\	et	8a\	et
2E\	#3	8.E\	Fi-	8.B\	Fi-	8.e\	Fi-	8.a\	Fi-
.	.	16E\	-li-	16A\	-li-	16d\	-li-	16g\	-li-
.	.	4E\	-o	4B\	-o	4e\	-o	4g\	-o
!	!	!	!	!LO:LB:g=original	!	!	!	!	!
=265	=265	=265	=265	=265	=265	=265	=265	=265	=265
4r	.	4r	.	4r	.	4r	.	4r	.
4C/	6	8C/	et	8c\	et	8e\	et	8a\	et
.	.	8C/	spi-	8B\	spi-	8e\	spi-	8a\	spi-
4D/	.	4D\	-ri-	4A\	-ri-	4f\	-ri-	4a\	-ri-
4AA/	#	8A\	-tu-	8c#X\	-tu-	8e\	-tu-	8a\	-tu-
.	.	8A\	-i	8c#\	-i	8e\	-i	8a\	-i
!LO:LB:g=original	!	!	!	!	!	!	!	!LO:LB:g=original	!
=266	=266	=266	=266	=266	=266	=266	=266	=266	=266
2D\	n	2D\	san-	2d\	san-	2e\	san-	[1a	san-
!	!	!	!	!	!	!LO:LB:g=original	!	!	!
=-	=-	=-	=-	=-	=-	=-	=-	=-	=-
2D#X\	5 n7	2D#X\	.	2cn\	.	2f#X\	.	.	.
=267	=267	=267	=267	=267	=267	=267	=267	=267	=267
2E\	4	2E\	.	2B\	.	2e\	.	4a\]	.
.	#3	.	.	.	.	.	.	4g#X\	.
4AA/	.	4AA/	-cto	2A\	-cto	4e\	-cto	2a;\	-cto
4r	.	4r	.	.	.	4r	.	.	.
!LO:LB:g=original	!	!LO:LB:g=original	!	!LO:LB:g=original	!	!LO:PB:g=original	!	!LO:LB:g=original	!
=268||	=268||	=268||	=268||	=268||	=268||	=268||	=268||	=268||	=268||
*M4/4	*	*M4/4	*	*M4/4	*	*M4/4	*	*M4/4	*
*met(c)	*	*met(c)	*	*met(c)	*	*met(c)	*	*met(c)	*
!LO:TX:a:i:t=Tutti	!	!LO:TX:a:t=Tutti	!	!LO:TX:a:t=Tutti	!	!	!	!LO:TX:t=Tutti	!
4.c\	.	2r	.	4.c\	Si-	2r	.	2r	.
8c\	.	.	.	8c\	-cut	.	.	.	.
4G\	.	4.G\	Si-	8B\L	e-	4.d\	si-	4.b\	Si-
.	.	.	.	8A\J	.	.	.	.	.
8r	.	.	.	8B\L	-rat	.	.	.	.
8G\	.	8G\	-cut	8G\J	.	8d\	-cut	8b\	-cut
=269	=269	=269	=269	=269	=269	=269	=269	=269	=269
8E\L	6	8E\L	e-	4c\	in	4e\	e-	4cc\	e-
8D\	.	8D\J	.	.	.	.	.	.	.
8E\	.	8E\L	-rat	4B\	prin-	4e\	-rat	4cc\	-rat
8C\J	.	8C\J	.	.	.	.	.	.	.
4F\	.	4F\	in	8A\L	-ci-	4f\	in	4cc\	in
.	.	.	.	8B\J	.	.	.	.	.
4E\	.	4E\	prin-	[4c\	.	4g\	prin-	4g\	prin-
=270	=270	=270	=270	=270	=270	=270	=270	=270	=270
4.D\	76	4.D/	-ci-	4c\]	.	4.f\	-ci-	4.dd\	-ci-
.	.	.	.	4B\	-pi-	.	.	.	.
8D\	.	8D/	-pi-	.	.	8f\	-pi-	8dd\	-pi-
4C/	.	4C/	-o	4c\	-o	4e\	-o	4g\	-o
4c\	.	4c\	et	4e\	et	4r	.	4cc\	et
!LO:LB:g=original	!	!	!	!LO:LB:g=original	!	!	!	!	!
=271	=271	=271	=271	=271	=271	=271	=271	=271	=271
4B\	.	4B\	nunc	4d\	nunc	4r	.	4g\	nunc
4G\	.	4G\	et	4B\	et	4g\	et	4b\	et
!	!	!	!	!	!	!LO:LB:g=original	!	!	!
=-	=-	=-	=-	=-	=-	=-	=-	=-	=-
2c\	.	2c\	sem-	2e\	sem-	4e\	nunc	2cc\	sem-
.	.	.	.	.	.	4c\	et	.	.
!	!	!LO:LB:g=original	!	!	!	!	!	!LO:LB:g=original	!
=272	=272	=272	=272	=272	=272	=272	=272	=272	=272
4G\	.	4G\	-per	2d\	-per	2g\	ſem-	4b\	-per
4G\	.	4G\	et	.	.	.	.	4b\	et
4F#X\	.	4F#X\	nunc	4r	.	8d\	-per	4a\	nunc
.	.	.	.	.	.	8d\	et	.	.
4D\	.	4D\	et	4d\	et	8d\	nunc	4dd\	et
.	.	.	.	.	.	8f#X\	et	.	.
=273	=273	=273	=273	=273	=273	=273	=273	=273	=273
2G\	.	2G\	sem-	4B\	nunc	2g\	sem-	2b\	sem-
.	.	.	.	4G\	et	.	.	.	.
4D\	.	4D/	-per	4.d\	sem-	4f#X\	-per	4a\	-per
8D\L	.	8D/	et	.	.	8f#\	et	8a\	et
8D\J	.	8D/	in	8c\	-per	8f#\	in	8a\	in
=274	=274	=274	=274	=274	=274	=274	=274	=274	=274
!	!	!LO:SIC:v:l:s=sae-	!	!	!	!LO:SIC:v:l:s=sae-	!	!LO:SIC:v:l:s=sae-	!
4.G\	.	4.G\	sę-	4B\	et	4.d\	sę-	4.b\	sę-
.	.	.	.	8B\	in	.	.	.	.
!	!	!	!	!LO:SIC:v:l:s=sae-	!	!	!	!	!
8F#X\	.	8F#X\	-cu-	8B\	sę-	8d\	-cu-	8a\	-cu-
!LO:PB:g=original	!	!	!	!	!	!LO:LB:g=original	!	!	!
=-	=-	=-	=-	=-	=-	=-	=-	=-	=-
4E\	.	4E\	-la	4.e\	-cu-	4g\	-la	4g\	-la
!	!	!LO:SIC:v:l:s=sae-	!	!	!	!LO:SIC:v:l:s=sae-	!	!LO:SIC:v:l:s=sae-	!
8E\L	.	8E\	sę-	.	.	8g\	sę-	8g\	sę-
8E\J	.	8E\	-cu-	8d\	.	8f#X\	-cu-	8g\	-cu-
=275	=275	=275	=275	=275	=275	=275	=275	=275	=275
4.A\	.	4.A\	-lo-	4c\	-la	4e\	-lo-	4.cc\	-lo-
!	!	!	!	!LO:SIC:v:l:s=sae-	!	!	!	!	!
.	.	.	.	8c\	sę-	8e\	-rum	.	.
8G\	.	8G\	-ru(m)	8c\	-cu-	8e\	.	8b\	-rum
!	!	!	!	!LO:LB:g=original	!	!	!	!LO:LB:g=original	!
=-	=-	=-	=-	=-	=-	=-	=-	=-	=-
4F#X\	6 5	4F#X\	a-	4d\	-lo-	8f#X\	-a-	4a\	a-
.	.	.	.	.	.	8d\	-men	.	.
4G\	.	4G\	-men	4d\	-rum	[4g\	a-	4b\	-men
!	!	!LO:LB:g=original	!	!	!	!	!	!	!
=276	=276	=276	=276	=276	=276	=276	=276	=276	=276
2D\	4	2D\	a-	2d\	a-	4g\]	.	2a\	a-
.	#3	.	.	.	.	4f#X\	.	.	.
4GG/	.	4GG/	-men	4d\	-men	4g\	-men	4b\	-men
8G\L	.	8G\	et	8d\	et	8g\	et	8b\	et
8G\J	.	8G\	in	8d\	in	8g\	in	8b\	in
!	!	!	!	!	!	!LO:LB:g=original	!	!	!
=277	=277	=277	=277	=277	=277	=277	=277	=277	=277
!	!	!LO:SIC:v:l:s=sae-	!	!LO:SIC:v:l:s=sae-	!	!LO:SIC:v:l:s=sae-	!	!LO:SIC:v:l:s=sae-	!
4.c\	.	4.c\	sę-	4.e\	sę-	4.e\	sę-	4.g\	sę-
8B\	.	8B\	-cu-	8d\	-cu-	8e\	-cu-	8g\	-cu-
4A\	.	4A\	-la	4c\	-la	4a\	-la	4cc\	-la
!	!	!LO:SIC:v:l:s=sae-	!	!LO:SIC:v:l:s=sae-	!	!LO:SIC:v:l:s=sae-	!	!LO:SIC:v:l:s=sae-	!
8A\L	.	8A\	sę-	8c\	sę-	8a\	sę-	8cc\	sę-
8A\J	.	8A\	-cu-	8c\	-cu-	8a\	-cu-	8cc\	-cu-
!LO:LB:g=original	!	!	!	!	!	!	!	!	!
=278	=278	=278	=278	=278	=278	=278	=278	=278	=278
4.d\	.	4.d\	-lo-	4.f\	-lo-	4.f\	-lo-	4.a\	-lo-
8c\	.	8c\	-rum	8e\	.	8f\	-rum	8a\	-rum
!	!	!	!	!	!	!	!	!LO:LB:g=original	!
=-	=-	=-	=-	=-	=-	=-	=-	=-	=-
4B\	.	4B\	a-	4d\	.	4g\	a-	4dd\	a-
4c\	.	4c\	-men	4e\	-rum	4g\	-men	4cc\	-men
=279	=279	=279	=279	=279	=279	=279	=279	=279	=279
2G\	.	2G\	a-	2d\	a-	2g\	a-	4cc\	a-
.	.	.	.	.	.	.	.	4b\	.
4C/	.	4C/	-men	4e\	-me(n)	4g\	-men	4cc\	-men
4r	.	4r	.	4r	.	4r	.	4r	.
!	!	!LO:LB:g=original	!	!LO:LB:g=original	!	!	!	!	!
=280	=280	=280	=280	=280	=280	=280	=280	=280	=280
4F\	.	4F\	a-	4c\	a-	4f\	a-	4a\	a-
4E\	.	4E\	-men	4c\	-men	4g\	-men	4g\	-men
!	!	!	!	!	!	!LO:LB:g=original	!	!	!
=-	=-	=-	=-	=-	=-	=-	=-	=-	=-
2F\	.	2F\	a-	2c\	a-	2f\	a-	2a\	a-
=281	=281	=281	=281	=281	=281	=281	=281	=281	=281
!LO:TX:b:i:t=Finiſ	!	!LO:TX:b:t=Finis	!	!	!	!	!	!	!
1C;	.	1C;	-men	1c	-men	1e	-men	1g;	-men
!LO:PB:g=original	!	!LO:PB:g=original	!	!LO:PB:g=original	!	!LO:PB:g=original	!	!LO:PB:g=original	!
==	==	==	==	==	==	==	==	==	==
*-	*-	*-	*-	*-	*-	*-	*-	*-	*-
!!!system-decoration: [(s1,s2,s3,s4)]s5
!!!RDF**kern: < = below
!!!RDF**kern: > = above
!!!ENC: Marta Chmielewska
!!!END: 2021-04-09
!!!ENC: Kamil Watkowski
!!!END: 2021-03-16
